!!!!SEGMENT: pl-cz--iii-108--005_dankowski-adalbert--litaniae-es-salus-infirmorum.krn
!!!cenid: 18xx:777
!!!COM: Dankowski, Adalbert
!!!COM-rismid: pe30000793
!!!CDT: ~1760-~1836
!!!CNT: Polish
!!!OPR: Litaniae Es
!!!OTL: Salus infirmorum
!!!OMV: 005
!!!PDT:
!!!AGN: Sacred; Vespers
!!!SMS-siglum: PL-CZ
!!!SMS-shelfmark: III-108
!!!SMS-shelfwork: 001-005 M
!!!SMS-variant:
!!!SMS-altvar:
!!!NIFC-rismid: 300000106
!!!URL-scan: http://repozytorium.nifc.pl/skany/pl-cz-nut--iii-108
!!!ONB-nifc: UWAGA: części Litanii: Kyrie, Sancta Maria, Virgo prudentissima, Speculum iustitiae,
!!!key: g
**kern	**fba	**dynam	**kern	**dynam	**kern	**dynam	**kern	**text	**text	**kern	**text	**text	**kern	**text	**text	**text	**kern	**text	**text	**text	**kern	**kern	**kern	**kern	**kern
*part12	*part12	*part12	*part11	*part11	*part10	*part10	*part9	*part9	*part9	*part8	*part8	*part8	*part7	*part7	*part7	*part7	*part6	*part6	*part6	*part6	*part5	*part4	*part3	*part2	*part1
*staff12	*staff12	*	*staff11	*	*staff10	*	*staff9	*staff9	*staff9	*staff8	*staff8	*staff8	*staff7	*staff7	*staff7	*staff7	*staff6	*staff6	*staff6	*staff6	*staff5	*staff4	*staff3	*staff2	*staff1
*	*	*	*group4	*	*group4	*	*group3	*	*	*group3	*	*	*group3	*	*	*	*group3	*	*	*	*group2	*group2	*group1	*group1	*group1
*I"Organo	*	*	*I"Violino Secondo	*	*I"Violino Primo	*	*I"Basso	*	*	*I"Tenore	*	*	*I"Alto	*	*	*	*I"Canto	*	*	*	*I"Cornu Secondo Ex Es	*I"Cornu Primo Ex Es	*I"Fagotho Obligatto	*I"Clarinetto Secondo Ex Es	*I"Clarinetto Primo Ex Es
*I'org	*	*	*I'vl 2	*	*I'vl 1	*	*I'B	*	*	*I'T	*	*	*I'A	*	*	*	*I'S	*	*	*	*I'cor 2 in Es	*I'cor 1 in Es	*I'fag obl	*I'cl 2 in Es	*I'cl 1 in Es
*Iorgan	*	*	*Ivioln	*	*Ivioln	*	*Ibass	*	*	*Itenor	*	*	*Ialto	*	*	*	*Isoprn	*	*	*	*Icor	*Icor	*Ifagot	*Iclara	*Iclara
*ICklav	*	*	*ICstr	*	*ICstr	*	*ICvox	*	*	*ICvox	*	*	*ICvox	*	*	*	*ICvox	*	*	*	*ICbras	*ICbras	*ICww	*ICww	*ICww
*IGcont	*	*	*IGacmp	*	*IGacmp	*	*IGcoro	*	*	*IGcoro	*	*	*IGcoro	*	*	*	*IGcoro	*	*	*	*IGacmp	*IGacmp	*IGacmp	*IGacmp	*IGacmp
*clefF4	*	*	*clefG2	*	*clefG2	*	*clefF4	*	*	*clefC4	*	*	*clefC3	*	*	*	*clefC1	*	*	*	*	*	*	*	*
*k[b-e-]	*	*	*k[b-e-]	*	*k[b-e-]	*	*k[b-e-]	*	*	*k[b-e-]	*	*	*k[b-e-]	*	*	*	*k[e-b-]	*	*	*	*	*	*	*	*
*g:	*	*	*g:	*	*g:	*	*g:	*	*	*g:	*	*	*g:	*	*	*	*g:	*	*	*	*	*	*	*	*
*M4/4	*	*	*M4/4	*	*M4/4	*	*M4/4	*	*	*M4/4	*	*	*M4/4	*	*	*	*M4/4	*	*	*	*	*	*	*	*
*met(C.)	*	*	*met(C.)	*	*met(C.)	*	*met(C.)	*	*	*met(C.)	*	*	*met(C.)	*	*	*	*met(C.)	*	*	*	*	*	*	*	*
*	*	*	*	*	*	*	*	*	*color:red	*	*	*color:red	*	*	*	*color:red	*	*	*	*color:red	*	*	*	*	*
!	!	!	!	!	!LO:TX:a:i:t=Solo	!	!	!	!	!	!	!	!	!	!	!	!	!	!	!	!	!	!	!	!
!LO:TX:a:t=adagio	!	!	!LO:TX:a:t=adag&colon;	!	!LO:TX:a:t=adag&colon;	!	!LO:TX:a:t=Adagio	!	!	!LO:TX:a:t=adagio	!	!	!LO:TX:a:t=Adagio	!	!	!	!LO:TX:a:t=adag&colon;	!	!	!	!LO:TX:a:t=Speculum\nSalus Tacet	!LO:TX:a:t=Speculum\nSalus Tacet	!LO:TX:a:t=Speculum\n& Salus Tacet	!LO:TX:a:t=Salus Tacet	!LO:TX:a:t=Salus Tacet
8r	.	.	8r	.	8dd\	.	8r	.	.	8r	.	.	8r	.	.	.	8r	.	.	.	8ryy	8ryy	8ryy	8ryy	8ryy
=1	=1	=1	=1	=1	=1	=1	=1	=1	=1	=1	=1	=1	=1	=1	=1	=1	=1	=1	=1	=1	=1	=1	=1	=1	=1
*	*	*	*^	*	*	*	*	*	*	*	*	*	*	*	*	*	*	*	*	*	*	*	*	*	*
!LO:TX:a:i:t=Solo:rj	!	!	!LO:TX:a:i:t=Solo&colon;	!	!	!	!	!	!	!	!	!	!	!	!	!	!	!	!	!	!	!	!	!	!	!
8G\L	.	.	8b-/L	2ryy	.	(16gg\LL	.	00r	.	.	00r	.	.	0r	.	.	.	0r	.	.	.	1ryy	1ryy	1ryy	1ryy	1ryy
.	.	.	.	.	.	16dd\)	.	.	.	.	.	.	.	.	.	.	.	.	.	.	.	.	.	.	.	.
8G\	.	.	8b-/	.	.	16dd|\	.	.	.	.	.	.	.	.	.	.	.	.	.	.	.	.	.	.	.	.
.	.	.	.	.	.	16dd|\JJ	.	.	.	.	.	.	.	.	.	.	.	.	.	.	.	.	.	.	.	.
8G\	.	.	8b-/	.	.	(16dd\LL	.	.	.	.	.	.	.	.	.	.	.	.	.	.	.	.	.	.	.	.
.	.	.	.	.	.	32cc\L	.	.	.	.	.	.	.	.	.	.	.	.	.	.	.	.	.	.	.	.
.	.	.	.	.	.	32dd\JJJ)	.	.	.	.	.	.	.	.	.	.	.	.	.	.	.	.	.	.	.	.
8G\J	.	.	8b-/J	.	.	(16ee-\LL	.	.	.	.	.	.	.	.	.	.	.	.	.	.	.	.	.	.	.	.
.	.	.	.	.	.	16dd\JJ)	.	.	.	.	.	.	.	.	.	.	.	.	.	.	.	.	.	.	.	.
*2\right	*	*	*2\right	*	*	*	*	*	*	*	*	*	*	*	*	*	*	*	*	*	*	*	*	*	*	*
*tremolo	*	*	*tremolo	*	*	*	*	*	*	*	*	*	*	*	*	*	*	*	*	*	*	*	*	*	*	*
8D\L	#	.	8a/L	8f#X\L	.	(16dd\LL	.	.	.	.	.	.	.	.	.	.	.	.	.	.	.	.	.	.	.	.
.	.	.	.	.	.	16cc\J)	.	.	.	.	.	.	.	.	.	.	.	.	.	.	.	.	.	.	.	.
8D\	.	.	8a/	8f#X\	.	8cc\J	.	.	.	.	.	.	.	.	.	.	.	.	.	.	.	.	.	.	.	.
8D\	.	.	8a/	8f#X\	.	16r	.	.	.	.	.	.	.	.	.	.	.	.	.	.	.	.	.	.	.	.
.	.	.	.	.	.	(16a\LL	.	.	.	.	.	.	.	.	.	.	.	.	.	.	.	.	.	.	.	.
8D\J	.	.	8a/J	8f#X\J	.	16cc\	.	.	.	.	.	.	.	.	.	.	.	.	.	.	.	.	.	.	.	.
.	.	.	.	.	.	16ff#X\JJ)	.	.	.	.	.	.	.	.	.	.	.	.	.	.	.	.	.	.	.	.
*	*	*	*v	*v	*	*	*	*	*	*	*	*	*	*	*	*	*	*	*	*	*	*	*	*	*	*
=2	=2	=2	=2	=2	=2	=2	=2	=2	=2	=2	=2	=2	=2	=2	=2	=2	=2	=2	=2	=2	=2	=2	=2	=2	=2
8F#X\L	6 5	.	8a/L	.	(16aa\LL	.	.	.	.	.	.	.	.	.	.	.	.	.	.	.	1ryy	1ryy	1ryy	1ryy	1ryy
.	.	.	.	.	16cc\)	.	.	.	.	.	.	.	.	.	.	.	.	.	.	.	.	.	.	.	.
8F#X\	.	.	8a/	.	16cc|\	.	.	.	.	.	.	.	.	.	.	.	.	.	.	.	.	.	.	.	.
.	.	.	.	.	16cc|\JJ	.	.	.	.	.	.	.	.	.	.	.	.	.	.	.	.	.	.	.	.
8F#X\	.	.	8a/	.	(16cc\LL	.	.	.	.	.	.	.	.	.	.	.	.	.	.	.	.	.	.	.	.
.	.	.	.	.	32b-\L	.	.	.	.	.	.	.	.	.	.	.	.	.	.	.	.	.	.	.	.
.	.	.	.	.	32cc\JJJ)	.	.	.	.	.	.	.	.	.	.	.	.	.	.	.	.	.	.	.	.
8F#X\J	.	.	8a/J	.	(16dd\LL	.	.	.	.	.	.	.	.	.	.	.	.	.	.	.	.	.	.	.	.
.	.	.	.	.	16cc\JJ)	.	.	.	.	.	.	.	.	.	.	.	.	.	.	.	.	.	.	.	.
*Xtremolo	*	*	*Xtremolo	*	*	*	*	*	*	*	*	*	*	*	*	*	*	*	*	*	*	*	*	*	*
!LO:TX:t=P:problem:mixed beam	!	!	!	!	!	!	!	!	!	!	!	!	!	!	!	!	!	!	!	!	!	!	!	!	!
8G\L	.	.	8g/L	.	16cc\LL	.	.	.	.	.	.	.	.	.	.	.	.	.	.	.	.	.	.	.	.
.	.	.	.	.	16b-\J	.	.	.	.	.	.	.	.	.	.	.	.	.	.	.	.	.	.	.	.
8G\	.	.	8g/J	.	8b-\J	.	.	.	.	.	.	.	.	.	.	.	.	.	.	.	.	.	.	.	.
8GG/J	.	.	16r	.	16r	.	.	.	.	.	.	.	.	.	.	.	.	.	.	.	.	.	.	.	.
.	.	.	16b-|\LL	.	16gg|\LL	.	.	.	.	.	.	.	.	.	.	.	.	.	.	.	.	.	.	.	.
8r	.	.	16b-|\	.	16gg|\	.	.	.	.	.	.	.	.	.	.	.	.	.	.	.	.	.	.	.	.
.	.	.	16b-|\JJ	.	16gg|\JJ	.	.	.	.	.	.	.	.	.	.	.	.	.	.	.	.	.	.	.	.
!	!	!	!	!	!LO:LB:g=original	!	!	!	!	!	!	!	!	!	!	!	!	!	!	!	!	!	!	!	!
=3	=3	=3	=3	=3	=3	=3	=3	=3	=3	=3	=3	=3	=3	=3	=3	=3	=3	=3	=3	=3	=3	=3	=3	=3	=3
8r	.	.	(16b-\LL	.	(16gg\LL	.	.	.	.	.	.	.	1r	.	.	.	1r	.	.	.	1ryy	1ryy	1ryy	1ryy	1ryy
.	.	.	16a\J)	.	16ff#X\J)	.	.	.	.	.	.	.	.	.	.	.	.	.	.	.	.	.	.	.	.
8d\L	#	.	8cc|\J	.	8aa|\J	.	.	.	.	.	.	.	.	.	.	.	.	.	.	.	.	.	.	.	.
8D\J	.	.	16r	.	16r	.	.	.	.	.	.	.	.	.	.	.	.	.	.	.	.	.	.	.	.
.	.	.	16cc|\LL	.	16aa|\LL	.	.	.	.	.	.	.	.	.	.	.	.	.	.	.	.	.	.	.	.
8r	.	.	16cc|\	.	16aa|\	.	.	.	.	.	.	.	.	.	.	.	.	.	.	.	.	.	.	.	.
.	.	.	16cc|\JJ	.	16aa|\JJ	.	.	.	.	.	.	.	.	.	.	.	.	.	.	.	.	.	.	.	.
8r	.	.	(16cc\LL	.	(16aa\LL	.	.	.	.	.	.	.	.	.	.	.	.	.	.	.	.	.	.	.	.
.	.	.	16b-\J)	.	16gg\J)	.	.	.	.	.	.	.	.	.	.	.	.	.	.	.	.	.	.	.	.
!LO:TX:t=P:problem:mixed beam	!	!	!	!	!	!	!	!	!	!	!	!	!	!	!	!	!	!	!	!	!	!	!	!	!
8G\L	.	.	8dd|\J	.	8bb-|\J	.	.	.	.	.	.	.	.	.	.	.	.	.	.	.	.	.	.	.	.
8GG/J	.	.	16r	.	16r	.	.	.	.	.	.	.	.	.	.	.	.	.	.	.	.	.	.	.	.
.	.	.	16b-|\LL	.	16dd|\LL	.	.	.	.	.	.	.	.	.	.	.	.	.	.	.	.	.	.	.	.
8r	.	.	16b-|\	.	16dd|\	.	.	.	.	.	.	.	.	.	.	.	.	.	.	.	.	.	.	.	.
.	.	.	16b-|\JJ	.	16dd|\JJ	.	.	.	.	.	.	.	.	.	.	.	.	.	.	.	.	.	.	.	.
!	!	!	!LO:LB:g=original	!	!	!	!	!	!	!	!	!	!	!	!	!	!	!	!	!	!	!	!	!	!
=4	=4	=4	=4	=4	=4	=4	=4	=4	=4	=4	=4	=4	=4	=4	=4	=4	=4	=4	=4	=4	=4	=4	=4	=4	=4
!	!	!	!	!	!	!	!	!	!	!	!	!	!LO:TX:a:i:t=Solo&colon;:rj	!	!	!	!LO:TX:a:i:t=Solo&colon;	!	!	!	!	!	!	!	!
8r	.	.	(16b-/LL	.	(16dd\LL	.	.	.	.	.	.	.	2r	.	.	.	2r	.	.	.	1ryy	1ryy	1ryy	1ryy	1ryy
.	.	.	16a/)	.	16cc\)	.	.	.	.	.	.	.	.	.	.	.	.	.	.	.	.	.	.	.	.
8c\L	6	.	(16cc/	.	(16ee-\	.	.	.	.	.	.	.	.	.	.	.	.	.	.	.	.	.	.	.	.
.	.	.	16a/JJ)	.	16cc\JJ)	.	.	.	.	.	.	.	.	.	.	.	.	.	.	.	.	.	.	.	.
8d\	4	.	8g/L	.	8b-/L	.	.	.	.	.	.	.	.	.	.	.	.	.	.	.	.	.	.	.	.
8D\J	#	.	8f#X/J	.	8a/J	.	.	.	.	.	.	.	.	.	.	.	.	.	.	.	.	.	.	.	.
8G\L	.	.	8g/L	.	16b-/LL	.	.	.	.	.	.	.	4r	.	.	.	4r	.	.	.	.	.	.	.	.
.	.	.	.	.	16g/	.	.	.	.	.	.	.	.	.	.	.	.	.	.	.	.	.	.	.	.
16D\L	.	.	16d/L	.	16d/	.	.	.	.	.	.	.	.	.	.	.	.	.	.	.	.	.	.	.	.
16BB-\JJ	.	.	16B-/JJ	.	16B-/JJ	.	.	.	.	.	.	.	.	.	.	.	.	.	.	.	.	.	.	.	.
8GG/	.	.	8G/	.	8G/	.	.	.	.	.	.	.	8r	.	.	.	8r	.	.	.	.	.	.	.	.
8r	.	.	8r	.	8r	.	.	.	.	.	.	.	8b-\	Sa-	San-	ad-	8dd\	Sa-	San-	Ad-	.	.	.	.	.
!LO:LB:g=original	!	!	!	!	!	!	!	!	!	!	!	!	!	!	!	!	!	!	!	!	!	!	!	!	!
=5	=5	=5	=5	=5	=5	=5	=5	=5	=5	=5	=5	=5	=5	=5	=5	=5	=5	=5	=5	=5	=5	=5	=5	=5	=5
!	!	!LO:DY:a	!	!LO:DY:a	!	!LO:DY:a	!	!	!	!	!	!	!	!	!	!	!	!	!	!	!	!	!	!	!
16r	.	p	16r	p	16r	p	0r	.	.	0r	.	.	16cc\LL	.	.	-Fran-	16ee-\LL	.	.	-fran-	1ryy	1ryy	1ryy	1ryy	1ryy
16G\LL	.	.	16d/LL	.	16b-\LL	.	.	.	.	.	.	.	16b-\JJ	.	.	-gen-	16dd\JJ	.	.	-gen-	.	.	.	.	.
16G\	.	.	16d/	.	16b-\	.	.	.	.	.	.	.	8b-\	-lus	-cte	-dum	8dd\	-lus	-cte	-dum	.	.	.	.	.
16G\JJ	.	.	16d/JJ	.	16b-\JJ	.	.	.	.	.	.	.	.	.	.	.	.	.	.	.	.	.	.	.	.
*tremolo	*	*	*tremolo	*	*tremolo	*	*	*	*	*	*	*	*	*	*	*	*	*	*	*	*	*	*	*	*
16G\LL	.	.	16d/LL	.	16b-\LL	.	.	.	.	.	.	.	8r	.	.	.	8r	.	.	.	.	.	.	.	.
16G\	.	.	16d/	.	16b-\	.	.	.	.	.	.	.	.	.	.	.	.	.	.	.	.	.	.	.	.
16G\	.	.	16d/	.	16b-\	.	.	.	.	.	.	.	(8b-\	Sa-	Pau-	hoc	8dd\	Sa-	Pau-	hoc	.	.	.	.	.
16G\JJ	.	.	16d/JJ	.	16b-\JJ	.	.	.	.	.	.	.	.	.	.	.	.	.	.	.	.	.	.	.	.
*Xtremolo	*	*	*Xtremolo	*	*Xtremolo	*	*	*	*	*	*	*	*	*	*	*	*	*	*	*	*	*	*	*	*
16r	.	.	16r	.	16r	.	.	.	.	.	.	.	16cc\LL)	.	.	San-	16ee-\LL	.	.	San-	.	.	.	.	.
16G\LL	.	.	16d/LL	.	16b-\LL	.	.	.	.	.	.	.	16b-\JJ	.	.	.	16dd\JJ	.	.	.	.	.	.	.	.
16G\	.	.	16d/	.	16b-\	.	.	.	.	.	.	.	8b-\	-lus	-le	-ctum	8dd\	-lus	-le	-ctum	.	.	.	.	.
16G\JJ	.	.	16d/JJ	.	16b-\JJ	.	.	.	.	.	.	.	.	.	.	.	.	.	.	.	.	.	.	.	.
*tremolo	*	*	*tremolo	*	*tremolo	*	*	*	*	*	*	*	*	*	*	*	*	*	*	*	*	*	*	*	*
16G\LL	.	.	16d/LL	.	16b-\LL	.	.	.	.	.	.	.	8r	.	.	.	8r	.	.	.	.	.	.	.	.
16G\	.	.	16d/	.	16b-\	.	.	.	.	.	.	.	.	.	.	.	.	.	.	.	.	.	.	.	.
16G\	.	.	16d/	.	16b-\	.	.	.	.	.	.	.	8b-\	Sa-	in-	San-	8dd\	Sa-	in-	San-	.	.	.	.	.
16G\JJ	.	.	16d/JJ	.	16b-\JJ	.	.	.	.	.	.	.	.	.	.	.	.	.	.	.	.	.	.	.	.
*Xtremolo	*	*	*Xtremolo	*	*Xtremolo	*	*	*	*	*	*	*	*	*	*	*	*	*	*	*	*	*	*	*	*
!	!	!	!	!	!LO:LB:g=original	!	!	!	!	!	!	!	!LO:LB:g=original	!	!	!	!LO:LB:g=original	!	!	!	!	!	!	!	!
=6	=6	=6	=6	=6	=6	=6	=6	=6	=6	=6	=6	=6	=6	=6	=6	=6	=6	=6	=6	=6	=6	=6	=6	=6	=6
16r	.	.	16r	.	16r	.	.	.	.	.	.	.	8.a\	-lus	-co-	.	8.cc\	-lus	-co-	.	1ryy	1ryy	1ryy	1ryy	1ryy
16C/LL	6	.	16e-/LL	.	16a/LL	.	.	.	.	.	.	.	.	.	.	.	.	.	.	.	.	.	.	.	.
16C/	.	.	16e-/	.	16a/	.	.	.	.	.	.	.	.	.	.	.	.	.	.	.	.	.	.	.	.
16C/JJ	.	.	16e-/JJ	.	16a/JJ	.	.	.	.	.	.	.	16cc\	.	.	.	16ee-\	.	.	.	.	.	.	.	.
*tremolo	*	*	*tremolo	*	*	*	*	*	*	*	*	*	*	*	*	*	*	*	*	*	*	*	*	*	*
16D/LL	#	.	16f#X/LL	.	16a/LL	.	.	.	.	.	.	.	8f#X\	in-	.	-ctum	8a\	in-	.	-ctum	.	.	.	.	.
16D/	.	.	16f#/	.	16a/	.	.	.	.	.	.	.	.	.	.	.	.	.	.	.	.	.	.	.	.
16D/	.	.	16f#/	.	16a/	.	.	.	.	.	.	.	8a\	-fir-	.	si-	8cc\	-fir-	.	si-	.	.	.	.	.
16D/JJ	.	.	16f#/JJ	.	16a/JJ	.	.	.	.	.	.	.	.	.	.	.	.	.	.	.	.	.	.	.	.
*Xtremolo	*	*	*Xtremolo	*	*	*	*	*	*	*	*	*	*	*	*	*	*	*	*	*	*	*	*	*	*
16r	.	.	16r	.	16r	.	.	.	.	.	.	.	16a\LL	-mo-	.	-gil-	16cc\LL	-mo-	.	-gil-	.	.	.	.	.
16G\LL	.	.	16g/LL	.	16b-\LL	.	.	.	.	.	.	.	16g\JJ	.	.	.	16b-\JJ	.	.	.	.	.	.	.	.
16G\	.	.	16d/	.	16b-\	.	.	.	.	.	.	.	8g\	-rum	-la	-lum	8b-\	-rum	-la	-lum	.	.	.	.	.
16G\JJ	.	.	16d/JJ	.	16b-\JJ	.	.	.	.	.	.	.	.	.	.	.	.	.	.	.	.	.	.	.	.
*tremolo	*	*	*tremolo	*	*tremolo	*	*	*	*	*	*	*	*	*	*	*	*	*	*	*	*	*	*	*	*
16G\LL	.	.	16d/LL	.	16b-\LL	.	.	.	.	.	.	.	8r	.	.	.	8r	.	.	.	.	.	.	.	.
16G\	.	.	16d/	.	16b-\	.	.	.	.	.	.	.	.	.	.	.	.	.	.	.	.	.	.	.	.
16G\	.	.	16d/	.	16b-\	.	.	.	.	.	.	.	8b-\	Ref-	Hie-	Fru-	8dd\	Ref-	Hie-	Fru-	.	.	.	.	.
16G\JJ	.	.	16d/JJ	.	16b-\JJ	.	.	.	.	.	.	.	.	.	.	.	.	.	.	.	.	.	.	.	.
*Xtremolo	*	*	*Xtremolo	*	*Xtremolo	*	*	*	*	*	*	*	*	*	*	*	*	*	*	*	*	*	*	*	*
=7	=7	=7	=7	=7	=7	=7	=7	=7	=7	=7	=7	=7	=7	=7	=7	=7	=7	=7	=7	=7	=7	=7	=7	=7	=7
16r	.	.	16r	.	16r	.	1r	.	.	1r	.	.	16cc\	-fu-	-ru-	.	16ee-\	-fu-	-ru-	.	1ryy	1ryy	1ryy	1ryy	1ryy
16G\LL	.	.	16d/LL	.	16b-\LL	.	.	.	.	.	.	.	16b-\	-gi-	-sa-	.	16dd\	-gi-	-sa-	.	.	.	.	.	.
16G\	.	.	16d/	.	16b-\	.	.	.	.	.	.	.	8b-\	-um	-lem	-stra	8dd\	-um	-lem	-stra	.	.	.	.	.
16G\JJ	.	.	16d/JJ	.	16b-\JJ	.	.	.	.	.	.	.	.	.	.	.	.	.	.	.	.	.	.	.	.
*tremolo	*	*	*	*	*tremolo	*	*	*	*	*	*	*	*	*	*	*	*	*	*	*	*	*	*	*	*
!	!	!	!LO:LB:g=original	!	!	!	!	!	!	!	!	!	!	!	!	!	!	!	!	!	!	!	!	!	!
16G\LL	.	.	16d/LL	.	16b-\LL	.	.	.	.	.	.	.	8r	.	.	.	8r	.	.	.	.	.	.	.	.
16G\	.	.	16d/	.	16b-\	.	.	.	.	.	.	.	.	.	.	.	.	.	.	.	.	.	.	.	.
*	*	*	*	*	*	*	*	*	*	*	*	*	*	*ij	*	*	*	*ij	*	*	*	*	*	*	*
16G\	.	.	16d/	.	16b-\	.	.	.	.	.	.	.	8b-\	Ref-	Hie-	Plan-	8dd\	Ref-	Hie-	Plan-	.	.	.	.	.
16G\JJ	.	.	16d/JJ	.	16b-\JJ	.	.	.	.	.	.	.	.	.	.	.	.	.	.	.	.	.	.	.	.
*Xtremolo	*	*	*	*	*Xtremolo	*	*	*	*	*	*	*	*	*	*	*	*	*	*	*	*	*	*	*	*
16r	.	.	16r	.	16r	.	.	.	.	.	.	.	16cc\	-fu-	-ru-	-di-	16ee-\	-fu-	-ru-	-di-	.	.	.	.	.
16G\LL	.	.	16d/LL	.	16b-\LL	.	.	.	.	.	.	.	16b-\	-gi-	-sa-	-ci-	16dd\	-gi-	-sa-	-ci-	.	.	.	.	.
16G\	.	.	16d/	.	16b-\	.	.	.	.	.	.	.	8b-\	-um	-lem	-js	8dd\	-um	-lem	-js	.	.	.	.	.
*	*	*	*	*	*	*	*	*	*	*	*	*	*	*Xij	*	*	*	*Xij	*	*	*	*	*	*	*
16G\JJ	.	.	16d/JJ	.	16b-\JJ	.	.	.	.	.	.	.	.	.	.	.	.	.	.	.	.	.	.	.	.
*tremolo	*	*	*tremolo	*	*tremolo	*	*	*	*	*	*	*	*	*	*	*	*	*	*	*	*	*	*	*	*
16G\LL	.	.	16d/LL	.	16b-\LL	.	.	.	.	.	.	.	8r	.	.	.	8r	.	.	.	.	.	.	.	.
16G\	.	.	16d/	.	16b-\	.	.	.	.	.	.	.	.	.	.	.	.	.	.	.	.	.	.	.	.
16G\	.	.	16d/	.	16b-\	.	.	.	.	.	.	.	8b-\	pec-	Cae-	et	8dd\	pec-	Cae-	et	.	.	.	.	.
16G\JJ	.	.	16d/JJ	.	16b-\JJ	.	.	.	.	.	.	.	.	.	.	.	.	.	.	.	.	.	.	.	.
*Xtremolo	*	*	*Xtremolo	*	*Xtremolo	*	*	*	*	*	*	*	*	*	*	*	*	*	*	*	*	*	*	*	*
!	!	!	!	!	!	!	!	!	!	!	!	!	!LO:LB:g=original	!	!	!	!LO:LB:g=original	!	!	!	!	!	!	!	!
=8	=8	=8	=8	=8	=8	=8	=8	=8	=8	=8	=8	=8	=8	=8	=8	=8	=8	=8	=8	=8	=8	=8	=8	=8	=8
16r	.	.	16r	.	16r	.	2r	.	.	2r	.	.	4.g\	.	.	mi-	4cc#X\	-ca-	-le-	mi-	1ryy	1ryy	1ryy	1ryy	1ryy
16E-\LL	6\_ 3>	.	16g/LL	.	16cc#X\LL	.	.	.	.	.	.	.	.	.	.	.	.	.	.	.	.	.	.	.	.
16E-\	.	.	16g/	.	16cc#\	.	.	.	.	.	.	.	.	.	.	.	.	.	.	.	.	.	.	.	.
16E-\JJ	.	.	16g/JJ	.	16cc#\JJ	.	.	.	.	.	.	.	.	.	.	.	.	.	.	.	.	.	.	.	.
*tremolo	*	*	*tremolo	*	*	*	*	*	*	*	*	*	*	*	*	*	*	*	*	*	*	*	*	*	*
16E-\LL	.	.	16g/LL	.	16cc#\LL	.	.	.	.	.	.	.	.	.	.	.	32cc#\LLL	.	.	.	.	.	.	.	.
.	.	.	.	.	.	.	.	.	.	.	.	.	.	.	.	.	32dd\	.	.	.	.	.	.	.	.
16E-\	.	.	16g/	.	16cc#\	.	.	.	.	.	.	.	.	.	.	.	32ee-\	.	.	.	.	.	.	.	.
.	.	.	.	.	.	.	.	.	.	.	.	.	.	.	.	.	32ff#X\JJJ	.	.	.	.	.	.	.	.
16E-\	.	.	16g/	.	16cc#\	.	.	.	.	.	.	.	8g\	-ca-	.	.	32gg\LLL	.	.	.	.	.	.	.	.
.	.	.	.	.	.	.	.	.	.	.	.	.	.	.	.	.	32ee-\JJJ	.	.	.	.	.	.	.	.
16E-\JJ	.	.	16g/JJ	.	16cc#\JJ	.	.	.	.	.	.	.	.	.	.	.	32dd\LLL	.	.	.	.	.	.	.	.
*Xtremolo	*	*	*Xtremolo	*	*	*	*	*	*	*	*	*	*	*	*	*	*	*	*	*	*	*	*	*	*
.	.	.	.	.	.	.	.	.	.	.	.	.	.	.	.	.	32cc#\JJJ	.	.	.	.	.	.	.	.
!LO:LB:g=original	!	!	!	!	!	!	!	!	!	!	!	!	!	!	!	!	!	!	!	!	!	!	!	!	!
8D\L	x	.	8f#X/L	.	8dd\L	.	2r;	.	.	2r;	.	.	8f#X\	-to-	-le-	.	16cc#\LL	-to-	.	.	.	.	.	.	.
.	.	.	.	.	.	.	.	.	.	.	.	.	.	.	.	.	16dd\JJ	.	.	.	.	.	.	.	.
8D;\J	.	.	8f#/J	.	8dd;\J	.	.	.	.	.	.	.	8f#;\	-rum	-stis	-nis	8dd;\	-rum	-stis	-nis	.	.	.	.	.
!LO:TX:a:i:t=lutti	!	!	!	!	!	!	!	!	!	!	!	!	!	!	!	!	!	!	!	!	!	!	!	!	!
4r	.	.	4r;	.	4r	.	.	.	.	.	.	.	4r	.	.	.	4r	.	.	.	.	.	.	.	.
!	!	!	!	!	!LO:LB:g=original	!	!	!	!	!	!	!	!	!	!	!	!	!	!	!	!	!	!	!	!
=9	=9	=9	=9	=9	=9	=9	=9	=9	=9	=9	=9	=9	=9	=9	=9	=9	=9	=9	=9	=9	=9	=9	=9	=9	=9
*	*	*	*	*	*	*	*2\right	*	*	*2\right	*	*	*2\right	*	*	*	*2\right	*	*	*	*	*	*	*	*
!	!	!	!	!LO:DY:a	!	!LO:DY:a	!	!	!	!	!	!	!	!	!	!	!	!	!	!	!	!	!	!	!
8BB-/L	.	.	16r	f	16r	f	2B-\	o-	.	2B-\	o-	.	2fn\	o-	.	.	2dd\	o-	.	.	1ryy	1ryy	1ryy	1ryy	1ryy
.	.	.	16fn|/LL	.	16fn|/LL	.	.	.	.	.	.	.	.	.	.	.	.	.	.	.	.	.	.	.	.
8BB-/	.	.	(16b-/	.	(16b-/	.	.	.	.	.	.	.	.	.	.	.	.	.	.	.	.	.	.	.	.
.	.	.	16dd/JJ)	.	16dd/JJ)	.	.	.	.	.	.	.	.	.	.	.	.	.	.	.	.	.	.	.	.
8BB-/	.	.	(16ff/LL	.	(16ff/LL	.	.	.	.	.	.	.	.	.	.	.	.	.	.	.	.	.	.	.	.
.	.	.	16dd/)	.	16dd/)	.	.	.	.	.	.	.	.	.	.	.	.	.	.	.	.	.	.	.	.
8BB-/J	.	.	(16b-/	.	(16b-/	.	.	.	.	.	.	.	.	.	.	.	.	.	.	.	.	.	.	.	.
.	.	.	16f/JJ)	.	16f/JJ)	.	.	.	.	.	.	.	.	.	.	.	.	.	.	.	.	.	.	.	.
*tremolo	*	*	*	*	*	*	*	*	*	*	*	*	*	*	*	*	*	*	*	*	*	*	*	*	*
8BB-/L	6 4	.	16r	.	16r	.	2B-\	-ra	.	2B-\	-ra	.	2g\	-ra	.	.	2ee-\	-ra	.	.	.	.	.	.	.
.	.	.	16g|\LL	.	16g|\LL	.	.	.	.	.	.	.	.	.	.	.	.	.	.	.	.	.	.	.	.
8BB-/	.	.	(16b-\	.	(16b-\	.	.	.	.	.	.	.	.	.	.	.	.	.	.	.	.	.	.	.	.
.	.	.	16ee-\JJ)	.	16ee-\JJ)	.	.	.	.	.	.	.	.	.	.	.	.	.	.	.	.	.	.	.	.
8BB-/	.	.	(16gg\LL	.	(16gg\LL	.	.	.	.	.	.	.	.	.	.	.	.	.	.	.	.	.	.	.	.
.	.	.	16ee-\)	.	16ee-\)	.	.	.	.	.	.	.	.	.	.	.	.	.	.	.	.	.	.	.	.
8BB-/J	.	.	(16b-\	.	(16b-\	.	.	.	.	.	.	.	.	.	.	.	.	.	.	.	.	.	.	.	.
.	.	.	16g\JJ)	.	16g\JJ)	.	.	.	.	.	.	.	.	.	.	.	.	.	.	.	.	.	.	.	.
=10	=10	=10	=10	=10	=10	=10	=10	=10	=10	=10	=10	=10	=10	=10	=10	=10	=10	=10	=10	=10	=10	=10	=10	=10	=10
*	*	*	*	*	*	*	*	*ij	*	*	*ij	*	*	*ij	*	*	*	*ij	*	*	*	*	*	*	*
8BB-/L	7 2	.	16r	.	16r	.	2B-\	o-	.	2B-\	o-	.	2a\	o-	.	.	2cc\	o-	.	.	1ryy	1ryy	1ryy	1ryy	1ryy
.	.	.	16a|\LL	.	16a|\LL	.	.	.	.	.	.	.	.	.	.	.	.	.	.	.	.	.	.	.	.
8BB-/	.	.	(16cc\	.	(16cc\	.	.	.	.	.	.	.	.	.	.	.	.	.	.	.	.	.	.	.	.
.	.	.	16ff\JJ)	.	16ff\JJ)	.	.	.	.	.	.	.	.	.	.	.	.	.	.	.	.	.	.	.	.
!	!	!	!LO:LB:g=original	!	!	!	!	!	!	!	!	!	!	!	!	!	!	!	!	!	!	!	!	!	!
8BB-/	.	.	(16aa\LL	.	(16aa\LL	.	.	.	.	.	.	.	.	.	.	.	.	.	.	.	.	.	.	.	.
.	.	.	16ff\)	.	16ff\)	.	.	.	.	.	.	.	.	.	.	.	.	.	.	.	.	.	.	.	.
8BB-/J	.	.	(16cc\	.	(16cc\	.	.	.	.	.	.	.	.	.	.	.	.	.	.	.	.	.	.	.	.
.	.	.	16a\JJ)	.	16a\JJ)	.	.	.	.	.	.	.	.	.	.	.	.	.	.	.	.	.	.	.	.
8BB-/L	8 3	.	16r	.	16r	.	2B-\	-ra	.	2B-\	-ra	.	2b-\	-ra	.	.	2dd\	-ra	.	.	.	.	.	.	.
.	.	.	16b-|\LL	.	16b-|\LL	.	.	.	.	.	.	.	.	.	.	.	.	.	.	.	.	.	.	.	.
8BB-/	.	.	(16dd\	.	(16dd\	.	.	.	.	.	.	.	.	.	.	.	.	.	.	.	.	.	.	.	.
.	.	.	16ff\JJ)	.	16ff\JJ)	.	.	.	.	.	.	.	.	.	.	.	.	.	.	.	.	.	.	.	.
8BB-/	.	.	(16bb-\LL	.	(16bb-\LL	.	.	.	.	.	.	.	.	.	.	.	.	.	.	.	.	.	.	.	.
.	.	.	16ff\)	.	16ff\)	.	.	.	.	.	.	.	.	.	.	.	.	.	.	.	.	.	.	.	.
8BB-/J	.	.	(16dd\	.	(16dd\	.	.	.	.	.	.	.	.	.	.	.	.	.	.	.	.	.	.	.	.
.	.	.	16b-\JJ)	.	16b-\JJ)	.	.	.	.	.	.	.	.	.	.	.	.	.	.	.	.	.	.	.	.
*Xtremolo	*	*	*	*	*	*	*	*	*	*	*	*	*	*	*	*	*	*	*	*	*	*	*	*	*
=11	=11	=11	=11	=11	=11	=11	=11	=11	=11	=11	=11	=11	=11	=11	=11	=11	=11	=11	=11	=11	=11	=11	=11	=11	=11
8E-\L	5_ 3	.	(16gg\LL	.	16gg\LL	.	4E-\	o-	.	4B-\	o-	.	4g\	o-	.	.	4b-\	o-	.	.	1ryy	1ryy	1ryy	1ryy	1ryy
.	.	.	16ee-\)	.	16ee-\	.	.	.	.	.	.	.	.	.	.	.	.	.	.	.	.	.	.	.	.
8E-\	.	.	(16bb-\	.	16bb-\	.	.	.	.	.	.	.	.	.	.	.	.	.	.	.	.	.	.	.	.
.	.	.	16gg\JJ)	.	16gg\JJ	.	.	.	.	.	.	.	.	.	.	.	.	.	.	.	.	.	.	.	.
8D\	_ 3	.	(16ff\LL	.	16ff\LL	.	8D\	-ra	.	8B-\	-ra	.	8f\	-ra	.	.	8b-\	-ra	.	.	.	.	.	.	.
*	*	*	*	*	*	*	*	*Xij	*	*	*Xij	*	*	*Xij	*	*	*	*Xij	*	*	*	*	*	*	*
.	.	.	16dd\)	.	16dd\	.	.	.	.	.	.	.	.	.	.	.	.	.	.	.	.	.	.	.	.
8D\J	.	.	(16bb-\	.	16bb-\	.	8D\	pro-	.	8B-\	pro-	.	8f\	pro-	.	.	8b-\	pro-	.	.	.	.	.	.	.
.	.	.	16ff\JJ)	.	16ff\JJ	.	.	.	.	.	.	.	.	.	.	.	.	.	.	.	.	.	.	.	.
8AA/L	6 5	.	(16ff\LL	.	16ff\LL	.	4A\	-no-	.	4c\	-no-	.	4f\	-no-	.	.	4ee-\	-no-	.	.	.	.	.	.	.
.	.	.	16ee-\)	.	16ee-\	.	.	.	.	.	.	.	.	.	.	.	.	.	.	.	.	.	.	.	.
8AA/	.	.	(16cc\	.	16cc\	.	.	.	.	.	.	.	.	.	.	.	.	.	.	.	.	.	.	.	.
.	.	.	16ee-\JJ)	.	16ee-\JJ	.	.	.	.	.	.	.	.	.	.	.	.	.	.	.	.	.	.	.	.
!	!	!	!	!	!LO:LB:g=original	!	!	!	!	!	!	!	!	!	!	!	!	!	!	!	!	!	!	!	!
8BB-/	.	.	(32dd\LLL	.	(32dd\LLL	.	4B-\	-bis	.	4B-\	-bis	.	4f\	-bis	.	.	4dd\	-bis	.	.	.	.	.	.	.
.	.	.	32cc\	.	32cc\	.	.	.	.	.	.	.	.	.	.	.	.	.	.	.	.	.	.	.	.
.	.	.	32dd\	.	32dd\	.	.	.	.	.	.	.	.	.	.	.	.	.	.	.	.	.	.	.	.
.	.	.	32ee-\	.	32ee-\	.	.	.	.	.	.	.	.	.	.	.	.	.	.	.	.	.	.	.	.
8BB-/J	.	.	32ff\	.	32ff\	.	.	.	.	.	.	.	.	.	.	.	.	.	.	.	.	.	.	.	.
.	.	.	32gg\	.	32gg\	.	.	.	.	.	.	.	.	.	.	.	.	.	.	.	.	.	.	.	.
.	.	.	32aa\	.	32aa\	.	.	.	.	.	.	.	.	.	.	.	.	.	.	.	.	.	.	.	.
.	.	.	32bb-\JJJ)	.	32bb-\JJJ)	.	.	.	.	.	.	.	.	.	.	.	.	.	.	.	.	.	.	.	.
!	!	!	!	!	!	!	!LO:LB:g=original	!	!	!LO:LB:g=original	!	!	!	!	!	!	!LO:LB:g=original	!	!	!	!	!	!	!	!
=12	=12	=12	=12	=12	=12	=12	=12	=12	=12	=12	=12	=12	=12	=12	=12	=12	=12	=12	=12	=12	=12	=12	=12	=12	=12
8E-\L	5_ 3	.	(16gg\LL	.	16gg\LL	.	4E-\	o-	.	4B-\	o-	.	4g\	o-	.	.	4b-\	o-	.	.	1ryy	1ryy	1ryy	1ryy	1ryy
.	.	.	16ee-\)	.	16ee-\	.	.	.	.	.	.	.	.	.	.	.	.	.	.	.	.	.	.	.	.
8E-\	.	.	(16bb-\	.	16bb-\	.	.	.	.	.	.	.	.	.	.	.	.	.	.	.	.	.	.	.	.
.	.	.	16gg\JJ)	.	16gg\JJ	.	.	.	.	.	.	.	.	.	.	.	.	.	.	.	.	.	.	.	.
8D\	_ 3	.	(16ff\LL	.	16ff\LL	.	8D\	-ra	.	8B-\	-ra	.	8f\	-ra	.	.	8b-\	-ra	.	.	.	.	.	.	.
.	.	.	16dd\)	.	16dd\	.	.	.	.	.	.	.	.	.	.	.	.	.	.	.	.	.	.	.	.
8D\J	.	.	(16bb-\	.	16bb-\	.	8D\	pro-	.	8B-\	pro-	.	8f\	pro-	.	.	8b-\	pro-	.	.	.	.	.	.	.
.	.	.	16ff\JJ)	.	16ff\JJ	.	.	.	.	.	.	.	.	.	.	.	.	.	.	.	.	.	.	.	.
!	!	!	!	!	!	!	!	!	!	!	!	!	!LO:LB:g=original	!	!	!	!	!	!	!	!	!	!	!	!
8AA/L	6 5	.	(16ff\LL	.	16ff\LL	.	4A\	-no-	.	4c\	-no-	.	4f\	-no-	.	.	4ee-\	-no-	.	.	.	.	.	.	.
.	.	.	16ee-\)	.	16ee-\	.	.	.	.	.	.	.	.	.	.	.	.	.	.	.	.	.	.	.	.
8AA/	.	.	(16cc\	.	16cc\	.	.	.	.	.	.	.	.	.	.	.	.	.	.	.	.	.	.	.	.
.	.	.	16ee-\JJ)	.	16ee-\JJ	.	.	.	.	.	.	.	.	.	.	.	.	.	.	.	.	.	.	.	.
!	!	!	!LO:LB:g=original	!	!	!	!	!	!	!	!	!	!	!	!	!	!	!	!	!	!	!	!	!	!
8BB-/	.	.	(32dd\LLL	.	(32dd\LLL	.	4B-\	-bis	.	4B-\	-bis	.	4f\	-bis	.	.	4dd\	-bis	.	.	.	.	.	.	.
.	.	.	32cc\	.	32cc\	.	.	.	.	.	.	.	.	.	.	.	.	.	.	.	.	.	.	.	.
.	.	.	32dd\	.	32dd\	.	.	.	.	.	.	.	.	.	.	.	.	.	.	.	.	.	.	.	.
.	.	.	32ee-\	.	32ee-\	.	.	.	.	.	.	.	.	.	.	.	.	.	.	.	.	.	.	.	.
8BB-/J	.	.	32ff\	.	32ff\	.	.	.	.	.	.	.	.	.	.	.	.	.	.	.	.	.	.	.	.
.	.	.	32gg\	.	32gg\	.	.	.	.	.	.	.	.	.	.	.	.	.	.	.	.	.	.	.	.
.	.	.	32aa\	.	32aa\	.	.	.	.	.	.	.	.	.	.	.	.	.	.	.	.	.	.	.	.
.	.	.	32bb-\JJJ)	.	32bb-\JJJ)	.	.	.	.	.	.	.	.	.	.	.	.	.	.	.	.	.	.	.	.
=13	=13	=13	=13	=13	=13	=13	=13	=13	=13	=13	=13	=13	=13	=13	=13	=13	=13	=13	=13	=13	=13	=13	=13	=13	=13
8F\L	3_	.	8ff\L	.	8.aa\L	.	8F\L	o-	.	4c\	o-	.	4a\	o-	.	.	4.ff\	o-	.	.	1ryy	1ryy	1ryy	1ryy	1ryy
8E-\	.	.	8ff\	.	.	.	8E-\	.	.	.	.	.	.	.	.	.	.	.	.	.	.	.	.	.	.
.	.	.	.	.	32gg\LL	.	.	.	.	.	.	.	.	.	.	.	.	.	.	.	.	.	.	.	.
.	.	.	.	.	32aa\JJJ	.	.	.	.	.	.	.	.	.	.	.	.	.	.	.	.	.	.	.	.
8D\	6	.	8ff\	.	16bb-\LL	.	8D\	.	.	8d\L	.	.	8b-\L	.	.	.	.	.	.	.	.	.	.	.	.
.	.	.	.	.	32aa\L	.	.	.	.	.	.	.	.	.	.	.	.	.	.	.	.	.	.	.	.
.	.	.	.	.	32bb-\JJJ	.	.	.	.	.	.	.	.	.	.	.	.	.	.	.	.	.	.	.	.
8E-\J	6 5	.	8gg\J	.	16ccc\LL	.	8E-\J	.	.	8c\J	.	.	16cc\L	.	.	.	8gg\	.	.	.	.	.	.	.	.
.	.	.	.	.	16bb-\JJ	.	.	.	.	.	.	.	16b-\JJ	.	.	.	.	.	.	.	.	.	.	.	.
8F\L	3_	.	8ff\L	.	8.aa\L	.	8F\L	.	.	4c\	.	.	4a\	.	.	.	4.ff\	.	.	.	.	.	.	.	.
8E-\	.	.	8ff\	.	.	.	8E-\	.	.	.	.	.	.	.	.	.	.	.	.	.	.	.	.	.	.
.	.	.	.	.	32gg\LL	.	.	.	.	.	.	.	.	.	.	.	.	.	.	.	.	.	.	.	.
.	.	.	.	.	32aa\JJJ	.	.	.	.	.	.	.	.	.	.	.	.	.	.	.	.	.	.	.	.
8D\	6	.	8ff\	.	16bb-\LL	.	8D\	.	.	8d\L	.	.	8b-\L	.	.	.	.	.	.	.	.	.	.	.	.
.	.	.	.	.	32aa\L	.	.	.	.	.	.	.	.	.	.	.	.	.	.	.	.	.	.	.	.
.	.	.	.	.	32bb-\JJJ	.	.	.	.	.	.	.	.	.	.	.	.	.	.	.	.	.	.	.	.
8E-\J	6 5	.	8gg\J	.	16ccc\LL	.	8E-\J	.	.	8c\J	.	.	16cc\L	.	.	.	8gg\	.	.	.	.	.	.	.	.
.	.	.	.	.	16bb-\JJ	.	.	.	.	.	.	.	16b-\JJ	.	.	.	.	.	.	.	.	.	.	.	.
!LO:LB:g=original	!	!	!	!	!LO:LB:g=original	!	!	!	!	!	!	!	!	!	!	!	!	!	!	!	!	!	!	!	!
=14	=14	=14	=14	=14	=14	=14	=14	=14	=14	=14	=14	=14	=14	=14	=14	=14	=14	=14	=14	=14	=14	=14	=14	=14	=14
8F\L	n	.	16ff\LL	.	16aa\LL	.	8F\	-ra	.	8c\	-ra	.	8a\	-ra	.	.	8ff\	-ra	.	.	1ryy	1ryy	1ryy	1ryy	1ryy
.	.	.	16ff\	.	16aa\	.	.	.	.	.	.	.	.	.	.	.	.	.	.	.	.	.	.	.	.
8G\	.	.	16dd\	.	16bb-\	.	8G\	pro-	.	8g\	pro-	.	8b-\	pro-	.	.	8dd\	pro-	.	.	.	.	.	.	.
.	.	.	16dd\JJ	.	16bb-\JJ	.	.	.	.	.	.	.	.	.	.	.	.	.	.	.	.	.	.	.	.
*	*	*	*tremolo	*	*	*	*	*	*	*	*	*	*	*	*	*	*	*	*	*	*	*	*	*	*
8E-\	6 5	.	16cc\LL	.	16bb-\LL	.	8E-\L	-no-	.	8g\L	-no-	.	8b-\L	-no-	.	.	4cc\	-no-	.	.	.	.	.	.	.
.	.	.	16cc\	.	16bb-\	.	.	.	.	.	.	.	.	.	.	.	.	.	.	.	.	.	.	.	.
8F\J	.	.	16cc\	.	16aa\	.	8F\J	.	.	8f\J	.	.	8a\J	.	.	.	.	.	.	.	.	.	.	.	.
.	.	.	16cc\JJ	.	16aa\JJ	.	.	.	.	.	.	.	.	.	.	.	.	.	.	.	.	.	.	.	.
*	*	*	*Xtremolo	*	*	*	*	*	*	*	*	*	*	*	*	*	*	*	*	*	*	*	*	*	*
!LO:TX:a:i:t=Solo	!	!	!	!	!	!	!	!	!	!	!	!	!	!	!	!	!	!	!	!	!	!	!	!	!
8BB-/L	.	.	16dd|\LL	.	(16bb-\LL	.	4BB-/	-bis	.	4f\	-bis	.	4b-\	-bis	.	.	4dd\	-bis	.	.	.	.	.	.	.
.	.	.	16dd|\	.	16ff\)	.	.	.	.	.	.	.	.	.	.	.	.	.	.	.	.	.	.	.	.
8BB-/	.	.	16dd|\	.	16ff|\	.	.	.	.	.	.	.	.	.	.	.	.	.	.	.	.	.	.	.	.
.	.	.	16dd|\JJ	.	16ff|\JJ	.	.	.	.	.	.	.	.	.	.	.	.	.	.	.	.	.	.	.	.
8BB-/	.	.	(16dd\LL	.	(16ff\LL	.	4r	.	.	4r	.	.	4r	.	.	.	4r	.	.	.	.	.	.	.	.
.	.	.	32cc\L	.	32ee-\L	.	.	.	.	.	.	.	.	.	.	.	.	.	.	.	.	.	.	.	.
.	.	.	32dd\JJJ)	.	32ff\JJJ)	.	.	.	.	.	.	.	.	.	.	.	.	.	.	.	.	.	.	.	.
8BB-/J	.	.	16ee-|\LL	.	(16gg\LL	.	.	.	.	.	.	.	.	.	.	.	.	.	.	.	.	.	.	.	.
.	.	.	16dd|\JJ	.	16ff\JJ)	.	.	.	.	.	.	.	.	.	.	.	.	.	.	.	.	.	.	.	.
=15	=15	=15	=15	=15	=15	=15	=15	=15	=15	=15	=15	=15	=15	=15	=15	=15	=15	=15	=15	=15	=15	=15	=15	=15	=15
*tremolo	*	*	*	*	*	*	*	*	*	*	*	*	*	*	*	*	*	*	*	*	*	*	*	*	*
8F\L	.	.	(16dd\LL	.	(16ff\LL	.	00r	.	.	00r	.	.	1r	.	.	.	1r	.	.	.	1ryy	1ryy	1ryy	1ryy	1ryy
.	.	.	16cc\)	.	16ee-\)	.	.	.	.	.	.	.	.	.	.	.	.	.	.	.	.	.	.	.	.
8F\	.	.	16cc|\	.	16ee-|\	.	.	.	.	.	.	.	.	.	.	.	.	.	.	.	.	.	.	.	.
.	.	.	16cc|\JJ	.	16ee-|\JJ	.	.	.	.	.	.	.	.	.	.	.	.	.	.	.	.	.	.	.	.
8F\	.	.	16cc\LL	.	(16ee-\LL	.	.	.	.	.	.	.	.	.	.	.	.	.	.	.	.	.	.	.	.
.	.	.	32b-\L	.	32dd\L	.	.	.	.	.	.	.	.	.	.	.	.	.	.	.	.	.	.	.	.
.	.	.	32cc\JJJ	.	32ee-\JJJ)	.	.	.	.	.	.	.	.	.	.	.	.	.	.	.	.	.	.	.	.
8F\J	.	.	16dd\LL	.	(16ff\LL	.	.	.	.	.	.	.	.	.	.	.	.	.	.	.	.	.	.	.	.
.	.	.	16cc\JJ	.	16ee-\JJ)	.	.	.	.	.	.	.	.	.	.	.	.	.	.	.	.	.	.	.	.
*Xtremolo	*	*	*	*	*	*	*	*	*	*	*	*	*	*	*	*	*	*	*	*	*	*	*	*	*
!	!	!	!LO:LB:g=original	!	!	!	!	!	!	!	!	!	!	!	!	!	!	!	!	!	!	!	!	!	!
8B-\L	.	.	16cc\LL	.	(16ee-\LL	.	.	.	.	.	.	.	.	.	.	.	.	.	.	.	.	.	.	.	.
.	.	.	16b-\J	.	16dd\)	.	.	.	.	.	.	.	.	.	.	.	.	.	.	.	.	.	.	.	.
8B-\	.	.	8dd\J	.	16ff|\	.	.	.	.	.	.	.	.	.	.	.	.	.	.	.	.	.	.	.	.
.	.	.	.	.	16ff|\JJ	.	.	.	.	.	.	.	.	.	.	.	.	.	.	.	.	.	.	.	.
8D\	6	.	8f/L	.	(16ff\LL	.	.	.	.	.	.	.	.	.	.	.	.	.	.	.	.	.	.	.	.
.	.	.	.	.	16dd\)	.	.	.	.	.	.	.	.	.	.	.	.	.	.	.	.	.	.	.	.
8D\J	.	.	8f/J	.	(16cc\	.	.	.	.	.	.	.	.	.	.	.	.	.	.	.	.	.	.	.	.
.	.	.	.	.	16b-\JJ)	.	.	.	.	.	.	.	.	.	.	.	.	.	.	.	.	.	.	.	.
=16	=16	=16	=16	=16	=16	=16	=16	=16	=16	=16	=16	=16	=16	=16	=16	=16	=16	=16	=16	=16	=16	=16	=16	=16	=16
!LO:TX:t=P:problem:mixed beam	!	!	!	!	!	!	!	!	!	!	!	!	!	!	!	!	!LO:TX:a:i:t=Solo	!	!	!	!	!	!	!	!
8E-\L	6	.	8g/L	.	16cc\LL	.	.	.	.	.	.	.	2r	.	.	.	2r	.	.	.	1ryy	1ryy	1ryy	1ryy	1ryy
.	.	.	.	.	16dd\	.	.	.	.	.	.	.	.	.	.	.	.	.	.	.	.	.	.	.	.
8E-\	.	.	16g/L	.	16ee-\	.	.	.	.	.	.	.	.	.	.	.	.	.	.	.	.	.	.	.	.
.	.	.	16e-/JJ	.	16cc\JJ	.	.	.	.	.	.	.	.	.	.	.	.	.	.	.	.	.	.	.	.
8F\	4	.	8d/L	.	8b-/L	.	.	.	.	.	.	.	.	.	.	.	.	.	.	.	.	.	.	.	.
8FF/J	3	.	8c/J	.	8a/J	.	.	.	.	.	.	.	.	.	.	.	.	.	.	.	.	.	.	.	.
!	!	!	!	!	!LO:LB:g=original	!	!	!	!	!	!	!	!LO:TX:a:i:t=Solo	!	!	!	!	!	!	!	!	!	!	!	!
16BB-\LL	.	.	16d/LL	.	16b-/LL	.	.	.	.	.	.	.	4r	.	.	.	4r	.	.	.	.	.	.	.	.
16B-\	.	.	16b-/	.	16b-/	.	.	.	.	.	.	.	.	.	.	.	.	.	.	.	.	.	.	.	.
16F\	.	.	16f/	.	16f/	.	.	.	.	.	.	.	.	.	.	.	.	.	.	.	.	.	.	.	.
16D\JJ	.	.	16d/JJ	.	16d/JJ	.	.	.	.	.	.	.	.	.	.	.	.	.	.	.	.	.	.	.	.
8BB-/	.	.	8B-/	.	8B-/	.	.	.	.	.	.	.	8r	.	.	.	8r	.	.	.	.	.	.	.	.
!	!	!LO:DY:a	!	!	!	!	!	!	!	!	!	!	!	!	!	!	!	!	!	!	!	!	!	!	!
8r	.	p	8r	.	8r	.	.	.	.	.	.	.	16f\	Con-	San-	Sol-	16dd\	Con-	San-	Sol-	.	.	.	.	.
.	.	.	.	.	.	.	.	.	.	.	.	.	16f\	-ſo-	-cte	-li-	16dd\	-ſo-	-cte	-li-	.	.	.	.	.
!	!	!	!	!	!	!	!	!	!	!	!	!	!LO:LB:g=original	!	!	!	!LO:LB:g=original	!	!	!	!	!	!	!	!
=17	=17	=17	=17	=17	=17	=17	=17	=17	=17	=17	=17	=17	=17	=17	=17	=17	=17	=17	=17	=17	=17	=17	=17	=17	=17
!	!	!	!	!LO:DY:a	!	!LO:DY:a	!	!	!	!	!	!	!	!	!	!	!	!	!	!	!	!	!	!	!
16r	.	.	16r	p	16r	p	.	.	.	.	.	.	16g\LL	-la-	San-	-ci-	16ee-\LL	-la-	San-	-ci-	1ryy	1ryy	1ryy	1ryy	1ryy
16B-\LL	3_	.	16f/LL	.	16dd\LL	.	.	.	.	.	.	.	16f\JJ	.	.	-ta-	16dd\JJ	.	.	-ta-	.	.	.	.	.
16B-\	.	.	16f/	.	16dd\	.	.	.	.	.	.	.	8f\	-trix	-cte	-to	8dd\	-trix	-cte	-to	.	.	.	.	.
16B-\JJ	.	.	16f/JJ	.	16dd\JJ	.	.	.	.	.	.	.	.	.	.	.	.	.	.	.	.	.	.	.	.
*tremolo	*	*	*tremolo	*	*	*	*	*	*	*	*	*	*	*	*	*	*	*	*	*	*	*	*	*	*
16B-\LL	.	.	16f/LL	.	16dd\LL	.	.	.	.	.	.	.	8r	.	.	.	8r	.	.	.	.	.	.	.	.
16B-\	.	.	16f/	.	16dd\	.	.	.	.	.	.	.	.	.	.	.	.	.	.	.	.	.	.	.	.
*	*	*	*	*	*	*	*	*	*	*	*	*	*	*ij	*	*	*	*	*	*	*	*	*	*	*
16B-\	.	.	16f/	.	16dd\	.	.	.	.	.	.	.	16f\	Con-	San-	.	16dd\	Con-	San-	.	.	.	.	.	.
16B-\JJ	.	.	16f/JJ	.	16dd\JJ	.	.	.	.	.	.	.	16f\	-ſo-	-cte	an-	16dd\	-ſo-	-cte	an-	.	.	.	.	.
*Xtremolo	*	*	*Xtremolo	*	*	*	*	*	*	*	*	*	*	*	*	*	*	*	*	*	*	*	*	*	*
16r	.	.	16r	.	16r	.	.	.	.	.	.	.	16g\LL	-la-	san-	.	16ee-\LL	-la-	Pau-	.	.	.	.	.	.
16A-X\LL	.	.	16b-\LL	.	16dd\LL	.	.	.	.	.	.	.	16f\JJ	.	.	.	16dd\JJ	.	.	.	.	.	.	.	.
16A-\	.	.	16b-\	.	16dd\	.	.	.	.	.	.	.	8f\	-trix	-cte	-te	8dd\	-trix	-le	-te	.	.	.	.	.
*	*	*	*	*	*	*	*	*	*	*	*	*	*	*Xij	*	*	*	*	*	*	*	*	*	*	*
16A-\JJ	.	.	16b-\JJ	.	16dd\JJ	.	.	.	.	.	.	.	.	.	.	.	.	.	.	.	.	.	.	.	.
*	*	*	*tremolo	*	*tremolo	*	*	*	*	*	*	*	*	*	*	*	*	*	*	*	*	*	*	*	*
16A-\LL	.	.	16b-\LL	.	16dd\LL	.	.	.	.	.	.	.	8r	.	.	.	8r	.	.	.	.	.	.	.	.
16A-\	.	.	16b-\	.	16dd\	.	.	.	.	.	.	.	.	.	.	.	.	.	.	.	.	.	.	.	.
16A-\	.	.	16b-\	.	16dd\	.	.	.	.	.	.	.	8b-\	Af-	Pau-	et	[8dd\	Af-	in-	et	.	.	.	.	.
16A-\JJ	.	.	16b-\JJ	.	16dd\JJ	.	.	.	.	.	.	.	.	.	.	.	.	.	.	.	.	.	.	.	.
*	*	*	*Xtremolo	*	*Xtremolo	*	*	*	*	*	*	*	*	*	*	*	*	*	*	*	*	*	*	*	*
!LO:LB:g=original	!	!	!	!	!	!	!	!	!	!	!	!	!	!	!	!	!	!	!	!	!	!	!	!	!
=18	=18	=18	=18	=18	=18	=18	=18	=18	=18	=18	=18	=18	=18	=18	=18	=18	=18	=18	=18	=18	=18	=18	=18	=18	=18
16r	x	.	16r	.	16r	.	.	.	.	.	.	.	4.bn\	.	.	post	4.dd\]	.	.	post	1ryy	1ryy	1ryy	1ryy	1ryy
16G\LL	n_	.	16bn\LL	.	16dd\LL	.	.	.	.	.	.	.	.	.	.	.	.	.	.	.	.	.	.	.	.
16G\	.	.	16b\	.	16dd\	.	.	.	.	.	.	.	.	.	.	.	.	.	.	.	.	.	.	.	.
16G\JJ	.	.	16b\JJ	.	16dd\JJ	.	.	.	.	.	.	.	.	.	.	.	.	.	.	.	.	.	.	.	.
*	*	*	*tremolo	*	*tremolo	*	*	*	*	*	*	*	*	*	*	*	*	*	*	*	*	*	*	*	*
16G\LL	.	.	16b\LL	.	16dd\LL	.	.	.	.	.	.	.	.	.	.	.	.	.	.	.	.	.	.	.	.
16G\	.	.	16b\	.	16dd\	.	.	.	.	.	.	.	.	.	.	.	.	.	.	.	.	.	.	.	.
16G\	.	.	16b\	.	16dd\	.	.	.	.	.	.	.	16a\LL	-fli-	.	tor-	16cc\LL	-fli-	-co-	tor-	.	.	.	.	.
16G\JJ	.	.	16b\JJ	.	16dd\JJ	.	.	.	.	.	.	.	16b\JJ	.	.	.	16dd\JJ	.	.	.	.	.	.	.	.
*	*	*	*Xtremolo	*	*Xtremolo	*	*	*	*	*	*	*	*	*	*	*	*	*	*	*	*	*	*	*	*
16r	x	.	16r	.	16r	.	.	.	.	.	.	.	16b\LL	-cto-	.	-tu-	16dd\LL	-cto-	.	-tu-	.	.	.	.	.
16c\LL	.	.	16cc\LL	.	16ee-\LL	.	.	.	.	.	.	.	16cc\JJ	.	.	.	16ee-\JJ	.	.	.	.	.	.	.	.
16c\	.	.	16cc\	.	16ee-\	.	.	.	.	.	.	.	8g\	-rum	-le	-ram	8ee-\	-rum	-la	-ram	.	.	.	.	.
16c\JJ	.	.	16cc\JJ	.	16ee-\JJ	.	.	.	.	.	.	.	.	.	.	.	.	.	.	.	.	.	.	.	.
*tremolo	*	*	*tremolo	*	*tremolo	*	*	*	*	*	*	*	*	*	*	*	*	*	*	*	*	*	*	*	*
16c\LL	.	.	16cc\LL	.	16ee-\LL	.	.	.	.	.	.	.	8r	.	.	.	8r	.	.	.	.	.	.	.	.
16c\	.	.	16cc\	.	16ee-\	.	.	.	.	.	.	.	.	.	.	.	.	.	.	.	.	.	.	.	.
16c\	.	.	16cc\	.	16ee-\	.	.	.	.	.	.	.	16e-\	Con-	Hie-	con-	16cc\	Con-	Hie-	con-	.	.	.	.	.
16c\JJ	.	.	16cc\JJ	.	16ee-\JJ	.	.	.	.	.	.	.	16e-\	-ſo-	-ru-	-feſ-	16cc\	-ſo-	-ru-	-feſ-	.	.	.	.	.
*Xtremolo	*	*	*Xtremolo	*	*Xtremolo	*	*	*	*	*	*	*	*	*	*	*	*	*	*	*	*	*	*	*	*
!	!	!	!LO:LB:g=original	!	!	!	!	!	!	!	!	!	!	!	!	!	!	!	!	!	!	!	!	!	!
=19	=19	=19	=19	=19	=19	=19	=19	=19	=19	=19	=19	=19	=19	=19	=19	=19	=19	=19	=19	=19	=19	=19	=19	=19	=19
16r	.	.	16r	.	16r	.	0r	.	.	0r	.	.	16f\LL	-la-	-sa-	-si-	16dd\LL	-la-	-sa-	-si-	1ryy	1ryy	1ryy	1ryy	1ryy
16An\LL	3_	.	16e-/LL	.	16cc\LL	.	.	.	.	.	.	.	16e-\JJ	.	.	-o-	16cc\JJ	.	.	-o-	.	.	.	.	.
16A\	.	.	16e-/	.	16cc\	.	.	.	.	.	.	.	8e-\	-trix	-lem	-nem	8cc\	-trix	-lem	-nem	.	.	.	.	.
16A\JJ	.	.	16e-/JJ	.	16cc\JJ	.	.	.	.	.	.	.	.	.	.	.	.	.	.	.	.	.	.	.	.
*tremolo	*	*	*tremolo	*	*tremolo	*	*	*	*	*	*	*	*	*	*	*	*	*	*	*	*	*	*	*	*
!	!	!	!	!	!	!	!	!	!	!	!	!	!LO:LB:g=original	!	!	!	!LO:LB:g=original	!	!	!	!	!	!	!	!
16A\LL	.	.	16e-/LL	.	16cc\LL	.	.	.	.	.	.	.	8r	.	.	.	8r	.	.	.	.	.	.	.	.
16A\	.	.	16e-/	.	16cc\	.	.	.	.	.	.	.	.	.	.	.	.	.	.	.	.	.	.	.	.
16A\	.	.	16e-/	.	16cc\	.	.	.	.	.	.	.	16e-\	Con-	Hie-	.	16cc\	Con-	hie-	.	.	.	.	.	.
16A\JJ	.	.	16e-/JJ	.	16cc\JJ	.	.	.	.	.	.	.	16e-\	-ſo-	-ru-	an-	16cc\	-ſo-	-ru-	an-	.	.	.	.	.
*Xtremolo	*	*	*Xtremolo	*	*Xtremolo	*	*	*	*	*	*	*	*	*	*	*	*	*	*	*	*	*	*	*	*
!	!	!	!	!	!LO:LB:g=original	!	!	!	!	!	!	!	!	!	!	!	!	!	!	!	!	!	!	!	!
16r	.	.	16r	.	16r	.	.	.	.	.	.	.	16f\LL	-la-	-sa-	-gu-	16dd\LL	-la-	-sa-	-gu-	.	.	.	.	.
16G\LL	.	.	16a/LL	.	16cc\LL	.	.	.	.	.	.	.	16e-\JJ	.	.	.	16cc\JJ	.	.	.	.	.	.	.	.
16G\	.	.	16a/	.	16cc\	.	.	.	.	.	.	.	8e-\	-trix	-lem	-ste	8cc\	-trix	-lem	-ste	.	.	.	.	.
16G\JJ	.	.	16a/JJ	.	16cc\JJ	.	.	.	.	.	.	.	.	.	.	.	.	.	.	.	.	.	.	.	.
*tremolo	*	*	*tremolo	*	*	*	*	*	*	*	*	*	*	*	*	*	*	*	*	*	*	*	*	*	*
16G\LL	.	.	16a/LL	.	16cc\LL	.	.	.	.	.	.	.	8r	.	.	.	8r	.	.	.	.	.	.	.	.
16G\	.	.	16a/	.	16cc\	.	.	.	.	.	.	.	.	.	.	.	.	.	.	.	.	.	.	.	.
16G\	.	.	16a/	.	16cc\	.	.	.	.	.	.	.	8a\	af-	Hie-	pro-	8cc\	af-	Hie-	Pro-	.	.	.	.	.
16G\JJ	.	.	16a/JJ	.	16cc\JJ	.	.	.	.	.	.	.	.	.	.	.	.	.	.	.	.	.	.	.	.
*Xtremolo	*	*	*Xtremolo	*	*	*	*	*	*	*	*	*	*	*	*	*	*	*	*	*	*	*	*	*	*
=20	=20	=20	=20	=20	=20	=20	=20	=20	=20	=20	=20	=20	=20	=20	=20	=20	=20	=20	=20	=20	=20	=20	=20	=20	=20
16r	x	.	16r	.	16r	.	.	.	.	.	.	.	4.a\	.	-ru-	-pe-	4.cc\	.	-ru-	-pe-	1ryy	1ryy	1ryy	1ryy	1ryy
16F\LL	.	.	16a/LL	.	16cc\LL	.	.	.	.	.	.	.	.	.	.	.	.	.	.	.	.	.	.	.	.
16F\	.	.	16a/	.	16cc\	.	.	.	.	.	.	.	.	.	.	.	.	.	.	.	.	.	.	.	.
16F\JJ	.	.	16a/JJ	.	16cc\JJ	.	.	.	.	.	.	.	.	.	.	.	.	.	.	.	.	.	.	.	.
*tremolo	*	*	*tremolo	*	*tremolo	*	*	*	*	*	*	*	*	*	*	*	*	*	*	*	*	*	*	*	*
16F\LL	.	.	16a/LL	.	16cc\LL	.	.	.	.	.	.	.	.	.	.	.	.	.	.	.	.	.	.	.	.
16F\	.	.	16a/	.	16cc\	.	.	.	.	.	.	.	.	.	.	.	.	.	.	.	.	.	.	.	.
16F\	.	.	16a/	.	16cc\	.	.	.	.	.	.	.	16g\LL	-fli-	-sa-	.	16b-\LL	-fli-	-sa-	.	.	.	.	.	.
16F\JJ	.	.	16a/JJ	.	16cc\JJ	.	.	.	.	.	.	.	16a\JJ	.	.	.	16cc\JJ	.	.	.	.	.	.	.	.
*Xtremolo	*	*	*Xtremolo	*	*Xtremolo	*	*	*	*	*	*	*	*	*	*	*	*	*	*	*	*	*	*	*	*
16r	.	.	16r	.	16r	.	.	.	.	.	.	.	16a\LL	-cto-	.	-ra-	16cc\LL	-cto-	.	-ra-	.	.	.	.	.
16B-\LL	.	.	16b-\LL	.	16dd\LL	.	.	.	.	.	.	.	16b-\JJ	.	.	.	16dd\JJ	.	.	.	.	.	.	.	.
16B-\	.	.	16b-\	.	16dd\	.	.	.	.	.	.	.	8f\	-rum	-lem	-re	8dd\	-rum	-lem	-re	.	.	.	.	.
16B-\JJ	.	.	16b-\JJ	.	16dd\JJ	.	.	.	.	.	.	.	.	.	.	.	.	.	.	.	.	.	.	.	.
*tremolo	*	*	*tremolo	*	*tremolo	*	*	*	*	*	*	*	*	*	*	*	*	*	*	*	*	*	*	*	*
16B-\LL	.	.	16b-\LL	.	16dd\LL	.	.	.	.	.	.	.	8r	.	.	.	8r	.	.	.	.	.	.	.	.
16B-\	.	.	16b-\	.	16dd\	.	.	.	.	.	.	.	.	.	.	.	.	.	.	.	.	.	.	.	.
16B-\	.	.	16b-\	.	16dd\	.	.	.	.	.	.	.	8f\	Au-	Hie-	E-	8dd\	Au-	Hie-	E-	.	.	.	.	.
16B-\JJ	.	.	16b-\JJ	.	16dd\JJ	.	.	.	.	.	.	.	.	.	.	.	.	.	.	.	.	.	.	.	.
*Xtremolo	*	*	*Xtremolo	*	*Xtremolo	*	*	*	*	*	*	*	*	*	*	*	*	*	*	*	*	*	*	*	*
=21	=21	=21	=21	=21	=21	=21	=21	=21	=21	=21	=21	=21	=21	=21	=21	=21	=21	=21	=21	=21	=21	=21	=21	=21	=21
16r	.	.	16r	.	16r	.	1r	.	.	1r	.	.	4.b-\	-xi-	.	.	4.dd\	-xi-	.	.	1ryy	1ryy	1ryy	1ryy	1ryy
16B-|\LL	.	.	16dd\LL	.	16dd\LL	.	.	.	.	.	.	.	.	.	.	.	.	.	.	.	.	.	.	.	.
16d|\	.	.	16ff\	.	16ff\	.	.	.	.	.	.	.	.	.	.	.	.	.	.	.	.	.	.	.	.
16c|\JJ	.	.	16ee-\JJ	.	16ee-\JJ	.	.	.	.	.	.	.	.	.	.	.	.	.	.	.	.	.	.	.	.
!LO:LB:g=original	!	!	!	!	!	!	!	!	!	!	!	!	!	!	!	!	!	!	!	!	!	!	!	!	!
16B-\LL	.	.	16dd\LL	.	16dd\LL	.	.	.	.	.	.	.	.	.	.	.	.	.	.	.	.	.	.	.	.
16A\	.	.	16cc\	.	16cc\	.	.	.	.	.	.	.	.	.	.	.	.	.	.	.	.	.	.	.	.
16G\	.	.	16b-\	.	16b-\	.	.	.	.	.	.	.	8b-\	-li-	-ru-	.	8dd\	-li-	-ru-	.	.	.	.	.	.
16F#X\JJ	.	.	16a\JJ	.	16a\JJ	.	.	.	.	.	.	.	.	.	.	.	.	.	.	.	.	.	.	.	.
!LO:TX:t=P:problem:mixed beam	!	!	!	!	!	!	!	!	!	!	!	!	!	!	!	!	!	!	!	!	!	!	!	!	!
16G\LL	.	.	16b-\LL	.	16b-\LL	.	.	.	.	.	.	.	4b-\	-um	-sa-	-li-	4dd\	-um	-sa-	-li-	.	.	.	.	.
16GG/	.	.	16b-\	.	16b-\	.	.	.	.	.	.	.	.	.	.	.	.	.	.	.	.	.	.	.	.
16B-\	.	.	16dd\	.	16dd\	.	.	.	.	.	.	.	.	.	.	.	.	.	.	.	.	.	.	.	.
16A\JJ	.	.	16cc\JJ	.	16cc\JJ	.	.	.	.	.	.	.	.	.	.	.	.	.	.	.	.	.	.	.	.
16G\LL	.	.	16b-/LL	.	16b-/LL	.	.	.	.	.	.	.	4b-\	Chriſ-	-lem	-gens	4dd\	Chriſ-	-lem	-gens	.	.	.	.	.
16F#\	.	.	16a/	.	16a/	.	.	.	.	.	.	.	.	.	.	.	.	.	.	.	.	.	.	.	.
16E-\	.	.	16g/	.	16g/	.	.	.	.	.	.	.	.	.	.	.	.	.	.	.	.	.	.	.	.
!	!	!	!LO:SIC:v:s=16f#/JJ	!	!	!	!	!	!	!	!	!	!	!	!	!	!	!	!	!	!	!	!	!	!
16D\JJ	.	.	16f/JJ	.	16f#X/JJ	.	.	.	.	.	.	.	.	.	.	.	.	.	.	.	.	.	.	.	.
!	!	!	!LO:LB:g=original	!	!LO:LB:g=original	!	!	!	!	!	!	!	!	!	!	!	!LO:LB:g=original	!	!	!	!	!	!	!	!
=22	=22	=22	=22	=22	=22	=22	=22	=22	=22	=22	=22	=22	=22	=22	=22	=22	=22	=22	=22	=22	=22	=22	=22	=22	=22
16C#X/LL	6_ 5_	.	16g/LL	.	16a/LL	.	2r	.	.	2r	.	.	4g\	-ti-	de	po-	4ee-\	-ti-	cae-	po-	1ryy	1ryy	1ryy	1ryy	1ryy
16C#/	.	.	16g/	.	16a/	.	.	.	.	.	.	.	.	.	.	.	.	.	.	.	.	.	.	.	.
16C#/	.	.	16g/	.	16a/	.	.	.	.	.	.	.	.	.	.	.	.	.	.	.	.	.	.	.	.
16C#/JJ	.	.	16g/JJ	.	16a/JJ	.	.	.	.	.	.	.	.	.	.	.	.	.	.	.	.	.	.	.	.
*tremolo	*	*	*tremolo	*	*tremolo	*	*	*	*	*	*	*	*	*	*	*	*	*	*	*	*	*	*	*	*
16C#/LL	.	.	16g/LL	.	16a/LL	.	.	.	.	.	.	.	4g\	-a-	.	.	4ee-\	-a-	.	.	.	.	.	.	.
16C#/	.	.	16g/	.	16a/	.	.	.	.	.	.	.	.	.	.	.	.	.	.	.	.	.	.	.	.
16C#/	.	.	16g/	.	16a/	.	.	.	.	.	.	.	.	.	.	.	.	.	.	.	.	.	.	.	.
16C#/JJ	.	.	16g/JJ	.	16a/JJ	.	.	.	.	.	.	.	.	.	.	.	.	.	.	.	.	.	.	.	.
*Xtremolo	*	*	*Xtremolo	*	*Xtremolo	*	*	*	*	*	*	*	*	*	*	*	*	*	*	*	*	*	*	*	*
!	!	!	!	!	!	!	!	!	!	!	!	!	!LO:LB:g=original	!	!	!	!	!	!	!	!	!	!	!	!
8D/L	#	.	8f#X/L	.	8a/L	.	2r;	.	.	2r;	.	.	8f#X\	-no-	Cae-	-ti-	8dd\	-no-	-le-	-ti-	.	.	.	.	.
8D/J	.	.	8f#;/J	.	8a/J	.	.	.	.	.	.	.	8f#;\	-rum	-lis	-us	8dd;\	-rum	-stis	-us	.	.	.	.	.
!	!	!	!	!LO:DY:a	!	!	!	!	!	!	!	!	!	!	!	!	!	!	!	!	!	!	!	!	!
4r;	.	.	4r	f	4r;	.	.	.	.	.	.	.	4r	.	.	.	4r	.	.	.	.	.	.	.	.
!	!	!	!	!	!	!	!	!	!	!LO:LB:g=original	!	!	!	!	!	!	!	!	!	!	!	!	!	!	!
=23	=23	=23	=23	=23	=23	=23	=23	=23	=23	=23	=23	=23	=23	=23	=23	=23	=23	=23	=23	=23	=23	=23	=23	=23	=23
!LO:TX:a:i:t=tutti:rj	!	!	!	!	!	!LO:DY:a:rj	!	!	!	!	!	!	!	!	!	!	!	!	!	!	!	!	!	!	!
8G\L	.	.	8.gg\L	.	8.gg\L	f	4G\	o-	mori	4B-\	o-	mori	4g\	o-	.	mori	4dd\	o-	.	mori	1ryy	1ryy	1ryy	1ryy	1ryy
8G\	.	.	.	.	.	.	.	.	.	.	.	.	.	.	.	.	.	.	.	.	.	.	.	.	.
.	.	.	32aa\LL	.	32aa\LL	.	.	.	.	.	.	.	.	.	.	.	.	.	.	.	.	.	.	.	.
.	.	.	32gg\JJJ	.	32gg\JJJ	.	.	.	.	.	.	.	.	.	.	.	.	.	.	.	.	.	.	.	.
8Bn\	6 5	.	16gg\LL	.	16gg\LL	.	8Bn\	-ra	quam	8d\	-ra	quam	8g\	-ra	.	quam	8dd\	-ra	.	quam	.	.	.	.	.
.	.	.	16ffn\	.	16ffn\	.	.	.	.	.	.	.	.	.	.	.	.	.	.	.	.	.	.	.	.
8B\J	.	.	16ee-\	.	16ee-\	.	8B\	pro-	mi-	8d\	pro-	mi-	8g\	pro-	.	mi-	8dd\	pro-	.	mi-	.	.	.	.	.
.	.	.	16dd\JJ	.	16dd\JJ	.	.	.	.	.	.	.	.	.	.	.	.	.	.	.	.	.	.	.	.
!LO:TX:t=P:problem:mixed beam	!	!	!	!	!	!LO:LB:g=original	!	!	!	!	!	!	!	!	!	!	!	!	!	!	!	!	!	!	!
8c\L	.	.	16ee-\LL	.	16ee-\LL	.	8c\	-no-	-ni-	8c\	-no-	-ni-	8g\	-no-	.	-ni-	8ee-\	-no-	.	-ni-	.	.	.	.	.
.	.	.	16gg\	.	16gg\	.	.	.	.	.	.	.	.	.	.	.	.	.	.	.	.	.	.	.	.
8C/J	.	.	16ff\	.	16ff\	.	8c\	-bis	-ne	8c\	-bis	-me	8g\	-bis	.	-me	8ee-\	-bis	.	-me	.	.	.	.	.
.	.	.	16ee-\JJ	.	16ee-\JJ	.	.	.	.	.	.	.	.	.	.	.	.	.	.	.	.	.	.	.	.
4r	.	.	16dd\LL	.	(16dd\LL	.	4r	.	.	4r	.	.	4r	.	.	.	4r	.	.	.	.	.	.	.	.
.	.	.	16ee-\	.	16ee-\)	.	.	.	.	.	.	.	.	.	.	.	.	.	.	.	.	.	.	.	.
.	.	.	16dd\	.	(16dd\	.	.	.	.	.	.	.	.	.	.	.	.	.	.	.	.	.	.	.	.
.	.	.	16ee-\JJ	.	16ee-\JJ)	.	.	.	.	.	.	.	.	.	.	.	.	.	.	.	.	.	.	.	.
=24	=24	=24	=24	=24	=24	=24	=24	=24	=24	=24	=24	=24	=24	=24	=24	=24	=24	=24	=24	=24	=24	=24	=24	=24	=24
*	*	*	*	*	*	*	*	*	*	*	*ij	*	*	*ij	*	*	*	*ij	*	*	*	*	*	*	*
8Fn\L	.	.	8.ff\L	.	8.ff\L	.	4Fn\	o-	Con-	4A\	o-	con-	4fn\	o-	.	con-	4cc\	o-	.	Con-	1ryy	1ryy	1ryy	1ryy	1ryy
8F\	.	.	.	.	.	.	.	.	.	.	.	.	.	.	.	.	.	.	.	.	.	.	.	.	.
.	.	.	32gg\LL	.	32gg\LL	.	.	.	.	.	.	.	.	.	.	.	.	.	.	.	.	.	.	.	.
.	.	.	32ff\JJJ	.	32ff\JJJ	.	.	.	.	.	.	.	.	.	.	.	.	.	.	.	.	.	.	.	.
8A\	6 5	.	16ff\LL	.	16ff\LL	.	8A\	-ra	-feſ-	8c\	-ra	-feſ-	8f\	-ra	.	-feſ-	8cc\	-ra	.	-feſ-	.	.	.	.	.
.	.	.	16ee-\	.	16ee-\	.	.	.	.	.	.	.	.	.	.	.	.	.	.	.	.	.	.	.	.
8A\J	.	.	16dd\	.	16dd\	.	8A\	pro-	-si-	8c\	pro-	-si-	8f\	pro-	.	-si-	8cc\	pro-	.	-si-	.	.	.	.	.
.	.	.	16cc\JJ	.	16cc\JJ	.	.	.	.	.	.	.	.	.	.	.	.	.	.	.	.	.	.	.	.
!LO:TX:t=P:problem:mixed beam	!	!	!	!	!	!	!	!	!	!	!	!	!	!	!	!	!	!	!	!	!	!	!	!	!
8B-X\L	.	.	16dd\LL	.	16dd\LL	.	8B-X\	-no-	-o-	8B-\	-no-	-o-	8f\	-no-	.	-o-	8dd\	-no-	.	-o-	.	.	.	.	.
.	.	.	16ff\	.	16ff\	.	.	.	.	.	.	.	.	.	.	.	.	.	.	.	.	.	.	.	.
8BB-/J	.	.	16ee-\	.	16ee-\	.	8B-\	-bis	-nis	8B-\	-bis	-nis	8f\	-bis	.	-nis	8dd\	-bis	.	-nis	.	.	.	.	.
*	*	*	*	*	*	*	*	*	*	*	*	*	*	*Xij	*	*	*	*Xij	*	*	*	*	*	*	*
.	.	.	16dd\JJ	.	16dd\JJ	.	.	.	.	.	.	.	.	.	.	.	.	.	.	.	.	.	.	.	.
4r	.	.	16cc\LL	.	16cc\LL	.	4r	.	.	4r	.	.	4r	.	.	.	4r	.	.	.	.	.	.	.	.
.	.	.	16dd\	.	16dd\	.	.	.	.	.	.	.	.	.	.	.	.	.	.	.	.	.	.	.	.
.	.	.	16cc\	.	16cc\	.	.	.	.	.	.	.	.	.	.	.	.	.	.	.	.	.	.	.	.
.	.	.	16dd\JJ	.	16dd\JJ	.	.	.	.	.	.	.	.	.	.	.	.	.	.	.	.	.	.	.	.
!LO:LB:g=original	!	!	!	!	!LO:LB:g=original	!	!	!	!	!	!	!	!	!	!	!	!LO:PB:g=original	!	!	!	!	!	!	!	!
=25	=25	=25	=25	=25	=25	=25	=25	=25	=25	=25	=25	=25	=25	=25	=25	=25	=25	=25	=25	=25	=25	=25	=25	=25	=25
*	*	*	*	*	*	*	*	*ij	*	*	*	*	*	*	*	*	*	*	*	*	*	*	*	*	*
8E-\L	.	.	8.ee-\L	.	8.ee-\L	.	4E-\	o-	secre-	4G/	o-	secre-	4e-\	o-	.	Secre-	4b-\	o-	.	Secre-	1ryy	1ryy	1ryy	1ryy	1ryy
8E-\	.	.	.	.	.	.	.	.	.	.	.	.	.	.	.	.	.	.	.	.	.	.	.	.	.
.	.	.	32ff\LL	.	32ff\LL	.	.	.	.	.	.	.	.	.	.	.	.	.	.	.	.	.	.	.	.
.	.	.	32ee-\JJJ	.	32ee-\JJJ	.	.	.	.	.	.	.	.	.	.	.	.	.	.	.	.	.	.	.	.
!	!	!	!LO:LB:g=original	!	!	!	!	!	!	!	!	!	!	!	!	!	!	!	!	!	!	!	!	!	!
8G\	6 5	.	16ee-\LL	.	16ee-\LL	.	8G\	-ra	-ta	8B-\	-ra	-ta	8e-\	-ra	.	-ta	8b-\	-ra	.	-ta	.	.	.	.	.
.	.	.	16dd\	.	16dd\	.	.	.	.	.	.	.	.	.	.	.	.	.	.	.	.	.	.	.	.
8G\J	.	.	16cc\	.	16cc\	.	8G\	pro-	pro-	8B-\	pro-	pro-	8e-\	pro-	.	pro-	8b-\	pro-	.	pro-	.	.	.	.	.
.	.	.	16b-\JJ	.	16b-\JJ	.	.	.	.	.	.	.	.	.	.	.	.	.	.	.	.	.	.	.	.
!LO:TX:t=P:problem:mixed beam	!	!	!	!	!	!	!	!	!	!LO:LB:g=original	!	!	!	!	!	!	!	!	!	!	!	!	!	!	!
8A\L	.	.	16cc\LL	.	16cc\LL	.	8A\	-no-	-de-	8A\	-no-	-de-	8e-\	-no-	.	-de-	8cc\	-no-	.	-de-	.	.	.	.	.
.	.	.	16ee-\	.	16ee-\	.	.	.	.	.	.	.	.	.	.	.	.	.	.	.	.	.	.	.	.
8AA/J	.	.	16dd\	.	16dd\	.	8A\	-bis	-re	8A\	-bis	-re	8e-\	-bis	.	-re	8cc\	-bis	.	-re	.	.	.	.	.
*	*	*	*	*	*	*	*	*	*	*	*Xij	*	*	*	*	*	*	*	*	*	*	*	*	*	*
.	.	.	16cc\JJ	.	16cc\JJ	.	.	.	.	.	.	.	.	.	.	.	.	.	.	.	.	.	.	.	.
4r	.	.	16b-\LL	.	16b-\LL	.	4r	.	.	4r	.	.	4r	.	.	.	4r	.	.	.	.	.	.	.	.
.	.	.	16cc\	.	16cc\	.	.	.	.	.	.	.	.	.	.	.	.	.	.	.	.	.	.	.	.
.	.	.	16b-\	.	16b-\	.	.	.	.	.	.	.	.	.	.	.	.	.	.	.	.	.	.	.	.
.	.	.	16cc\JJ	.	16cc\JJ	.	.	.	.	.	.	.	.	.	.	.	.	.	.	.	.	.	.	.	.
=26	=26	=26	=26	=26	=26	=26	=26	=26	=26	=26	=26	=26	=26	=26	=26	=26	=26	=26	=26	=26	=26	=26	=26	=26	=26
*	*	*	*	*	*	*	*	*	*	*	*	*	*	*ij	*	*	*	*ij	*	*	*	*	*	*	*
8D\L	#	.	8.dd\L	.	8.dd\L	.	4D\	o-	in-	4F#X/	o-	in-	4d\	o-	.	in-	4a\	o-	.	in-	1ryy	1ryy	1ryy	1ryy	1ryy
8D\	.	.	.	.	.	.	.	.	.	.	.	.	.	.	.	.	.	.	.	.	.	.	.	.	.
.	.	.	32ee-\LL	.	32ee-\LL	.	.	.	.	.	.	.	.	.	.	.	.	.	.	.	.	.	.	.	.
.	.	.	32dd\JJJ	.	32dd\JJJ	.	.	.	.	.	.	.	.	.	.	.	.	.	.	.	.	.	.	.	.
8F#X\	6 5	.	16dd\LL	.	16dd\LL	.	8F#X\	-ra	.	8A\	-ra	.	8d\	-ra	.	.	8a\	-ra	.	.	.	.	.	.	.
.	.	.	16cc\	.	16cc\	.	.	.	.	.	.	.	.	.	.	.	.	.	.	.	.	.	.	.	.
8F#\J	.	.	16b-\	.	16b-\	.	8F#\	pro-	-tor-	8A\	pro-	-tor-	8d\	pro-	.	-tor-	8a\	pro-	.	-tor-	.	.	.	.	.
.	.	.	16a\JJ	.	16a\JJ	.	.	.	.	.	.	.	.	.	.	.	.	.	.	.	.	.	.	.	.
!LO:TX:t=P:problem:mixed beam	!	!	!	!	!	!	!LO:LB:g=original	!	!	!	!	!	!	!	!	!	!	!	!	!	!	!	!	!	!
8G\L	.	.	16b-\LL	.	16b-\LL	.	8G\	-no-	-men-	8G/	-no-	-men-	8d\	-no-	.	-men-	8b-\	-no-	.	-men-	.	.	.	.	.
.	.	.	16dd\	.	16dd\	.	.	.	.	.	.	.	.	.	.	.	.	.	.	.	.	.	.	.	.
8GG/J	.	.	16cc\	.	16cc\	.	8G\	-bis	-tis	8G/	-bis	-tis	8d\	-bis	.	-tis	8b-\	-bis	.	-tis	.	.	.	.	.
*	*	*	*	*	*	*	*	*Xij	*	*	*	*	*	*	*	*	*	*	*	*	*	*	*	*	*
.	.	.	16b-\JJ	.	16b-\JJ	.	.	.	.	.	.	.	.	.	.	.	.	.	.	.	.	.	.	.	.
4r	.	.	16a\LL	.	16a\LL	.	4r	.	.	4r	.	.	4r	.	.	.	4r	.	.	.	.	.	.	.	.
.	.	.	16b-\	.	16b-\	.	.	.	.	.	.	.	.	.	.	.	.	.	.	.	.	.	.	.	.
.	.	.	16cc\	.	16cc\	.	.	.	.	.	.	.	.	.	.	.	.	.	.	.	.	.	.	.	.
.	.	.	16dd\JJ	.	16dd\JJ	.	.	.	.	.	.	.	.	.	.	.	.	.	.	.	.	.	.	.	.
!	!	!	!	!	!	!	!LO:PB:g=original	!	!	!	!	!	!	!	!	!	!	!	!	!	!	!	!	!	!
=27	=27	=27	=27	=27	=27	=27	=27	=27	=27	=27	=27	=27	=27	=27	=27	=27	=27	=27	=27	=27	=27	=27	=27	=27	=27
8c\L	5_ 3	.	(16ee-\LL	.	16ee-\LL	.	4c\	o-	Per-	4G/	o-	per-	4g\	o-	.	per-	4ee-\	o-	.	per-	1ryy	1ryy	1ryy	1ryy	1ryy
.	.	.	16cc\)	.	16cc\	.	.	.	.	.	.	.	.	.	.	.	.	.	.	.	.	.	.	.	.
8c\	.	.	(16gg\	.	16gg\	.	.	.	.	.	.	.	.	.	.	.	.	.	.	.	.	.	.	.	.
.	.	.	16ee-\JJ)	.	16ee-\JJ	.	.	.	.	.	.	.	.	.	.	.	.	.	.	.	.	.	.	.	.
8B-\	_ 3	.	(16dd\LL	.	16dd\LL	.	8B-\	-ra	.	8G/	-ra	.	8g\	-ra	.	.	8dd\	-ra	.	.	.	.	.	.	.
.	.	.	16b-\)	.	16b-\	.	.	.	.	.	.	.	.	.	.	.	.	.	.	.	.	.	.	.	.
8B-\J	.	.	(16gg\	.	16gg\	.	8B-\	pro-	-fe-	8G/	pro-	-fe-	8g\	pro-	.	-fe-	8dd\	pro-	.	-fe-	.	.	.	.	.
.	.	.	16dd\JJ)	.	16dd\JJ	.	.	.	.	.	.	.	.	.	.	.	.	.	.	.	.	.	.	.	.
8F#X\L	6 5	.	(16dd\LL	.	16dd\LL	.	4F#X\	-no-	-ren-	4A/	-no-	-ren-	4cc\	-no-	.	-ren-	4dd\	-no-	.	-ren-	.	.	.	.	.
.	.	.	16cc\)	.	16cc\	.	.	.	.	.	.	.	.	.	.	.	.	.	.	.	.	.	.	.	.
8F#\	.	.	(16a\	.	16a\	.	.	.	.	.	.	.	.	.	.	.	.	.	.	.	.	.	.	.	.
.	.	.	16cc\JJ)	.	16cc\JJ	.	.	.	.	.	.	.	.	.	.	.	.	.	.	.	.	.	.	.	.
!	!	!	!	!	!LO:LB:g=original	!	!	!	!	!	!	!	!	!	!	!	!	!	!	!	!	!	!	!	!
8G\	.	.	(32b-\LLL	.	(32b-\LLL	.	4G\	-bis	-dis	4G/	-bis	-dis	4b-\	-bis	.	-dis	4dd\	-bis	.	-dis	.	.	.	.	.
*	*	*	*	*	*	*	*	*	*	*	*	*	*	*Xij	*	*	*	*Xij	*	*	*	*	*	*	*
.	.	.	32a\	.	32a\	.	.	.	.	.	.	.	.	.	.	.	.	.	.	.	.	.	.	.	.
.	.	.	32b-\	.	32b-\	.	.	.	.	.	.	.	.	.	.	.	.	.	.	.	.	.	.	.	.
.	.	.	32cc\	.	32cc\	.	.	.	.	.	.	.	.	.	.	.	.	.	.	.	.	.	.	.	.
8G\J	.	.	32dd\	.	32dd\	.	.	.	.	.	.	.	.	.	.	.	.	.	.	.	.	.	.	.	.
.	.	.	32ee-\	.	32ee-\	.	.	.	.	.	.	.	.	.	.	.	.	.	.	.	.	.	.	.	.
.	.	.	32ff#X\	.	32ff#X\	.	.	.	.	.	.	.	.	.	.	.	.	.	.	.	.	.	.	.	.
.	.	.	32gg\JJJ)	.	32gg\JJJ)	.	.	.	.	.	.	.	.	.	.	.	.	.	.	.	.	.	.	.	.
!	!	!	!LO:LB:g=original	!	!	!	!	!	!	!	!	!	!	!	!	!	!LO:LB:g=original	!	!	!	!	!	!	!	!
=28	=28	=28	=28	=28	=28	=28	=28	=28	=28	=28	=28	=28	=28	=28	=28	=28	=28	=28	=28	=28	=28	=28	=28	=28	=28
*	*	*	*	*	*	*	*	*ij	*	*	*ij	*	*	*	*	*	*	*	*	*	*	*	*	*	*
8c\L	5_ 3	.	(16ee-\LL	.	16ee-\LL	.	4c\	o-	Pati-	4G/	o-	pati-	4g\	o-	.	Pati-	4ee-\	o-	.	Pati-	1ryy	1ryy	1ryy	1ryy	1ryy
.	.	.	16cc\)	.	16cc\	.	.	.	.	.	.	.	.	.	.	.	.	.	.	.	.	.	.	.	.
8c\	.	.	(16gg\	.	16gg\	.	.	.	.	.	.	.	.	.	.	.	.	.	.	.	.	.	.	.	.
.	.	.	16ee-\JJ)	.	16ee-\JJ	.	.	.	.	.	.	.	.	.	.	.	.	.	.	.	.	.	.	.	.
8B-\	_ 3	.	(16dd\LL	.	16dd\LL	.	8B-\	-ra	-en-	8G/	-ra	-en-	8g\	-ra	.	-en-	8dd\	-ra	.	-en-	.	.	.	.	.
.	.	.	16b-\)	.	16b-\	.	.	.	.	.	.	.	.	.	.	.	.	.	.	.	.	.	.	.	.
8B-\J	.	.	(16gg\	.	16gg\	.	8B-\	pro-	-tiſ-	8G/	pro-	-tiſ-	8g\	pro-	.	-tiſ-	8dd\	pro-	.	-tiſ-	.	.	.	.	.
.	.	.	16dd\JJ)	.	16dd\JJ	.	.	.	.	.	.	.	.	.	.	.	.	.	.	.	.	.	.	.	.
!	!	!	!	!	!	!	!	!	!	!	!	!	!LO:LB:g=original	!	!	!	!	!	!	!	!	!	!	!	!
8F#X\L	6 5	.	(16dd\LL	.	16dd\LL	.	4F#X\	-no-	-si-	4A/	-no-	-si-	4cc\	-no-	.	-si-	4dd\	-no-	.	-si-	.	.	.	.	.
.	.	.	16cc\)	.	16cc\	.	.	.	.	.	.	.	.	.	.	.	.	.	.	.	.	.	.	.	.
8F#\	.	.	(16a\	.	16a\	.	.	.	.	.	.	.	.	.	.	.	.	.	.	.	.	.	.	.	.
.	.	.	16cc\JJ)	.	16cc\JJ	.	.	.	.	.	.	.	.	.	.	.	.	.	.	.	.	.	.	.	.
8G\	.	.	(32b-\LLL	.	(32b-\LLL	.	4G\	-bis	-me	4G/	-bis	-me	4b-\	-bis	.	-me	4dd\	-bis	.	-me	.	.	.	.	.
*	*	*	*	*	*	*	*	*Xij	*	*	*Xij	*	*	*	*	*	*	*	*	*	*	*	*	*	*
.	.	.	32a\	.	32a\	.	.	.	.	.	.	.	.	.	.	.	.	.	.	.	.	.	.	.	.
.	.	.	32b-\	.	32b-\	.	.	.	.	.	.	.	.	.	.	.	.	.	.	.	.	.	.	.	.
.	.	.	32cc\	.	32cc\	.	.	.	.	.	.	.	.	.	.	.	.	.	.	.	.	.	.	.	.
8G\J	.	.	32dd\	.	32dd\	.	.	.	.	.	.	.	.	.	.	.	.	.	.	.	.	.	.	.	.
.	.	.	32ee-\	.	32ee-\	.	.	.	.	.	.	.	.	.	.	.	.	.	.	.	.	.	.	.	.
.	.	.	32ff#X\	.	32ff#X\	.	.	.	.	.	.	.	.	.	.	.	.	.	.	.	.	.	.	.	.
.	.	.	32gg\JJJ)	.	32gg\JJJ)	.	.	.	.	.	.	.	.	.	.	.	.	.	.	.	.	.	.	.	.
=29	=29	=29	=29	=29	=29	=29	=29	=29	=29	=29	=29	=29	=29	=29	=29	=29	=29	=29	=29	=29	=29	=29	=29	=29	=29
8d\L	#_	.	8dd\L	.	8.ff#X\L	.	8d\L	o-	.	4A\	o-	.	4f#X\	o-	.	.	4.dd\	o-	.	.	1ryy	1ryy	1ryy	1ryy	1ryy
8c\	.	.	8dd\	.	.	.	8c\	.	.	.	.	.	.	.	.	.	.	.	.	.	.	.	.	.	.
.	.	.	.	.	32ee-\LL	.	.	.	.	.	.	.	.	.	.	.	.	.	.	.	.	.	.	.	.
.	.	.	.	.	32ff#\JJJ	.	.	.	.	.	.	.	.	.	.	.	.	.	.	.	.	.	.	.	.
8B-\	6	.	8dd\	.	16gg\LL	.	8B-\	.	.	8B-\L	.	.	8g\L	.	.	.	.	.	.	.	.	.	.	.	.
.	.	.	.	.	32ff#\L	.	.	.	.	.	.	.	.	.	.	.	.	.	.	.	.	.	.	.	.
.	.	.	.	.	32gg\JJJ	.	.	.	.	.	.	.	.	.	.	.	.	.	.	.	.	.	.	.	.
8c\J	6 5	.	8ee-\J	.	16aa\LL	.	8c\J	.	.	8A\J	.	.	16a\L	.	.	.	8ee-\	.	.	.	.	.	.	.	.
.	.	.	.	.	16gg\JJ	.	.	.	.	.	.	.	16g\JJ	.	.	.	.	.	.	.	.	.	.	.	.
!LO:LB:g=original	!	!	!	!	!	!	!	!	!	!	!	!	!	!	!	!	!	!	!	!	!	!	!	!	!
8d\L	3_	.	8dd\L	.	8.ff#\L	.	8d\L	.	.	4A\	.	.	4f#\	.	.	.	4.dd\	.	.	.	.	.	.	.	.
8c\	.	.	8dd\	.	.	.	8c\	.	.	.	.	.	.	.	.	.	.	.	.	.	.	.	.	.	.
.	.	.	.	.	32ee-\LL	.	.	.	.	.	.	.	.	.	.	.	.	.	.	.	.	.	.	.	.
.	.	.	.	.	32ff#\JJJ	.	.	.	.	.	.	.	.	.	.	.	.	.	.	.	.	.	.	.	.
8B-\	6	.	8dd\	.	16gg\LL	.	8B-\	.	.	8B-\L	.	.	8g\L	.	.	.	.	.	.	.	.	.	.	.	.
.	.	.	.	.	32ff#\L	.	.	.	.	.	.	.	.	.	.	.	.	.	.	.	.	.	.	.	.
.	.	.	.	.	32gg\JJJ	.	.	.	.	.	.	.	.	.	.	.	.	.	.	.	.	.	.	.	.
8c\J	6 5	.	8ee-\J	.	16aa\LL	.	8c\J	.	.	8A\J	.	.	16a\L	.	.	.	8ee-\	.	.	.	.	.	.	.	.
.	.	.	.	.	16gg\JJ	.	.	.	.	.	.	.	16g\JJ	.	.	.	.	.	.	.	.	.	.	.	.
!	!	!	!	!	!LO:PB:g=original	!	!	!	!	!	!	!	!	!	!	!	!	!	!	!	!	!	!	!	!
=30	=30	=30	=30	=30	=30	=30	=30	=30	=30	=30	=30	=30	=30	=30	=30	=30	=30	=30	=30	=30	=30	=30	=30	=30	=30
8d\L	#	.	16dd\LL	.	16ff#X\LL	.	8d\	-ra	.	8A\	-ra	.	8f#X\	-ra	.	.	8dd\	-ra	.	.	1ryy	1ryy	1ryy	1ryy	1ryy
.	.	.	16dd\	.	16ff#\	.	.	.	.	.	.	.	.	.	.	.	.	.	.	.	.	.	.	.	.
8e-\	.	.	16b-\	.	16gg\	.	8e-\	pro-	.	8e-\	pro-	.	8g\	pro-	.	.	8b-\	pro-	.	.	.	.	.	.	.
.	.	.	16b-\JJ	.	16gg\JJ	.	.	.	.	.	.	.	.	.	.	.	.	.	.	.	.	.	.	.	.
!	!	!	!	!	!	!	!LO:LB:g=original	!	!	!	!	!	!	!	!	!	!	!	!	!	!	!	!	!	!
8c\	6 5	.	16a/LL	.	16gg\LL	.	8c\L	-no-	.	8e-\L	-no-	.	8g\L	-no-	.	.	4a\	-no-	.	.	.	.	.	.	.
.	.	.	16a/	.	16gg\	.	.	.	.	.	.	.	.	.	.	.	.	.	.	.	.	.	.	.	.
8d\J	#	.	16a/	.	16ff#\	.	8d\J	.	.	8d\J	.	.	8f#\J	.	.	.	.	.	.	.	.	.	.	.	.
.	.	.	16a/JJ	.	16ff#\JJ	.	.	.	.	.	.	.	.	.	.	.	.	.	.	.	.	.	.	.	.
!LO:TX:a:i:t=taſto	!	!	!	!	!	!	!	!	!	!	!	!	!	!	!	!	!	!	!	!	!	!	!	!	!
8G\L	.	.	8b-\	.	(16gg\LL	.	4G\	-bis	.	4d\	-bis	.	4g\	-bis	.	.	4b-\	-bis	.	.	.	.	.	.	.
.	.	.	.	.	16dd\JJ)	.	.	.	.	.	.	.	.	.	.	.	.	.	.	.	.	.	.	.	.
8G\	.	.	16r	.	16r	.	.	.	.	.	.	.	.	.	.	.	.	.	.	.	.	.	.	.	.
.	.	.	16b-\	.	16dd|\	.	.	.	.	.	.	.	.	.	.	.	.	.	.	.	.	.	.	.	.
8G\	.	.	(16b-\LL	.	(16dd\LL	.	4r	.	.	4r	.	.	4r	.	.	.	4r	.	.	.	.	.	.	.	.
.	.	.	16cc\)	.	16ee-\)	.	.	.	.	.	.	.	.	.	.	.	.	.	.	.	.	.	.	.	.
8G\J	.	.	(16cc\	.	(16ee-\	.	.	.	.	.	.	.	.	.	.	.	.	.	.	.	.	.	.	.	.
.	.	.	16a\JJ)	.	16cc\JJ)	.	.	.	.	.	.	.	.	.	.	.	.	.	.	.	.	.	.	.	.
!	!	!	!LO:LB:g=original	!	!	!	!	!	!	!	!	!	!	!	!	!	!	!	!	!	!	!	!	!	!
=31	=31	=31	=31	=31	=31	=31	=31	=31	=31	=31	=31	=31	=31	=31	=31	=31	=31	=31	=31	=31	=31	=31	=31	=31	=31
8G\L	.	.	8b-\	.	8dd\	.	1r	.	.	1r	.	.	1r	.	.	.	1r	.	.	.	1ryy	1ryy	1ryy	1ryy	1ryy
8G\	.	.	16r	.	16r	.	.	.	.	.	.	.	.	.	.	.	.	.	.	.	.	.	.	.	.
.	.	.	16d|/	.	16b-\	.	.	.	.	.	.	.	.	.	.	.	.	.	.	.	.	.	.	.	.
8G\	.	.	(16d/LL	.	(16b-\LL	.	.	.	.	.	.	.	.	.	.	.	.	.	.	.	.	.	.	.	.
.	.	.	16e-/)	.	16cc\)	.	.	.	.	.	.	.	.	.	.	.	.	.	.	.	.	.	.	.	.
8G\J	.	.	(16e-/	.	(16cc\	.	.	.	.	.	.	.	.	.	.	.	.	.	.	.	.	.	.	.	.
.	.	.	16c/JJ)	.	16a\JJ)	.	.	.	.	.	.	.	.	.	.	.	.	.	.	.	.	.	.	.	.
!LO:TX:t=P:problem:mixed beam	!	!	!	!	!	!	!	!	!	!	!	!	!	!	!	!	!	!	!	!	!	!	!	!	!
8G\L	.	.	(4c/	.	(4a/	.	.	.	.	.	.	.	.	.	.	.	.	.	.	.	.	.	.	.	.
8GG/	.	.	.	.	.	.	.	.	.	.	.	.	.	.	.	.	.	.	.	.	.	.	.	.	.
8G\J	.	.	8B-/)	.	8g/)	.	.	.	.	.	.	.	.	.	.	.	.	.	.	.	.	.	.	.	.
!	!	!	!LO:TX:b:i:t=Verte	!	!	!	!	!	!	!	!	!	!	!	!	!	!	!	!	!	!	!	!	!	!
8r	.	.	8r	.	8r	.	.	.	.	.	.	.	.	.	.	.	.	.	.	.	.	.	.	.	.
==	==	==	==	==	==	==	==	==	==	==	==	==	==	==	==	==	==	==	==	==	==	==	==	==	==
*-	*-	*-	*-	*-	*-	*-	*-	*-	*-	*-	*-	*-	*-	*-	*-	*-	*-	*-	*-	*-	*-	*-	*-	*-	*-
!!!system-decoration: [(g1)][(g2)][(g3)][(g4)]<s12>
!!!RDF**kern: | = vertical stroke
!!!RDF**dynam: p = "p:"
!!!RDF**dynam: f = "f:"
!!!AIN: 1 alto 1 bass 2 clara 2 cor 1 fagot 1 organ 1 soprn 1 tenor 2 violn
!!!ENC: Marcin Jachim
!!!END: 2020-07-12
!!!ENC: Andrzej Kubiczek
!!!END: 2021-12-03
